!!!!SEGMENT: pl-stab--4a--001-007_dankowski-adalbert--vesper-beate-marie-vir-magnificat.krn
!!!cenid: 18xx:3496
!!!COM: Dankowski, Adalbert
!!!COM-rismID: pe30000793
!!!CDT: ~1760-~1836
!!!CNT: Polish
!!!OPR: Vesper Beate Marie Vir
!!!OTL: Magnificat
!!!OMV: 007
!!!PDT:
!!!AGN: Sacred; Vespers
!!!SMS-siglum: PL-STAb
!!!SMS-shelfmark: 4a
!!!SMS-shelfwork: 001-007 M
!!!SMS-variant:
!!!SMS-altvar:
!!!NIFC-rismSourceID: 301050556
!!!NIFC-rismChildID: 301050556
!!!NIFC-islandoraID: pl-stab:1091
!!!URL-pdf-islandora: https://repozytorium.nifc.pl/islandora/object/pl-stab%3A1091/datastream/PDF/view
!!!URL-scan: https://polish.musicsources.pl/pl/lokalizacje/galeria/rekopisy/4518 @EN{Scan on Polish Music Sources Website} @PL{Skany w portalu Dziedzictwo Muzyki Polskiej w otwartym dostępie}
!!!IIIF:
!!!ONB-nifc: UWAGA: części Nieszporów: 1. Domine ad adjuvandum, 2. Dixit Dominus, 3. Laudate pueri, 4. Laetatus sum, 5. Nisi Dominus, 6. Lauda Jerusalem, 7. Magnificat, 8. Et misericordia, 9. Gloria. UWAGA: Na f. 1v okładki zapisany głos org niezidentyfikowanych nieszporów
!!!AIN: 1 alto 1 bass 2 cor 1 organ 1 soprn 1 tenor 2 violn
!!!OMD:
!!!OMD-mod: Allegro
!!!key: D
**kern	**fba	**dynam	**kern	**dynam	**kern	**dynam	**kern	**text	**mod-text	**dynam	**mod-dynam	**kern	**text	**mod-text	**dynam	**mod-dynam	**kern	**text	**mod-text	**dynam	**mod-dynam	**kern	**text	**mod-text	**dynam	**mod-dynam	**kern	**dynam	**kern	**dynam
*part9	*part9	*part9	*part8	*part8	*part7	*part7	*part6	*part6	*part6	*part6	*part6	*part5	*part5	*part5	*part5	*part5	*part4	*part4	*part4	*part4	*part4	*part3	*part3	*part3	*part3	*part3	*part2	*part2	*part1	*part1
*group4	*	*	*group3	*	*group3	*	*group2	*group2	*group2	*	*	*group2	*group2	*group2	*	*	*group2	*group2	*group2	*	*	*group2	*group2	*group2	*	*	*group1	*	*group1	*
*staff9	*	*	*staff8	*	*staff7	*	*staff6	*staff6	*staff6	*	*	*staff5	*staff5	*staff5	*	*	*staff4	*staff4	*staff4	*	*	*staff3	*staff3	*staff3	*	*	*staff2	*	*staff1	*
*I"Organo	*	*	*I"Violino Secundo	*	*I"Violino Primo	*	*I"Baſso	*	*	*	*	*I"Tenor	*	*	*	*	*I"Alto	*	*	*	*	*I"Canto	*	*	*	*	*I"Cornu Secundo Ex D.	*	*I"Cornu Primo Ex D:	*
*mI"Organo	*	*	*mI"Violino II	*	*mI"Violino I	*	*mI"Basso	*	*	*	*	*mI"Tenore	*	*	*	*	*mI"Alto	*	*	*	*	*mI"Soprano	*	*	*	*	*mI"Corno II in D	*	*mI"Corno I in D	*
*I'org	*	*	*I'vl 2	*	*I'vl 1	*	*I'B	*	*	*	*	*I'T	*	*	*	*	*I'A	*	*	*	*	*I'S	*	*	*	*	*I'cor 2 in D	*	*I'cor 1 in D	*
*mI'org	*	*	*mI'vl II	*	*mI'vl I	*	*mI'B	*	*	*	*	*mI'T	*	*	*	*	*mI'A	*	*	*	*	*mI'S	*	*	*	*	*mI'cor II in D	*	*mI'cor I in D	*
*Iorgan	*	*	*Ivioln	*	*Ivioln	*	*Ibass	*	*	*	*	*Itenor	*	*	*	*	*Ialto	*	*	*	*	*Isoprn	*	*	*	*	*Icor	*	*Icor	*
*ICklav	*	*	*ICstr	*	*ICstr	*	*ICvox	*	*	*	*	*ICvox	*	*	*	*	*ICvox	*	*	*	*	*ICvox	*	*	*	*	*ICbras	*	*ICbras	*
*IGcont	*	*	*	*	*	*	*	*	*	*	*	*	*	*	*	*	*	*	*	*	*	*	*	*	*	*	*	*	*	*
*clefF4	*	*	*clefG2	*	*clefG2	*	*clefF4	*	*	*	*	*clefC4	*	*	*	*	*clefC3	*	*	*	*	*clefC1	*	*	*	*	*clefG2	*	*clefG2	*
*	*	*	*	*	*	*	*	*	*	*	*	*mclefGv2	*	*	*	*	*mclefG2	*	*	*	*	*mclefG2	*	*	*	*	*	*	*	*
*	*	*	*	*	*	*	*	*	*	*	*	*	*	*	*	*	*	*	*	*	*	*	*	*	*	*	*ITrd6c10	*	*ITrd6c10	*
*k[f#c#]	*	*	*k[f#c#]	*	*k[f#c#]	*	*k[f#c#]	*	*	*	*	*k[c#f#]	*	*	*	*	*k[f#c#]	*	*	*	*	*k[f#c#]	*	*	*	*	*k[f#c#]	*	*k[f#c#]	*
*	*	*	*	*	*	*	*	*	*	*	*	*mk[f#c#]	*	*	*	*	*	*	*	*	*	*	*	*	*	*	*	*	*	*
*D:	*	*	*D:	*	*D:	*	*D:	*	*	*	*	*D:	*	*	*	*	*D:	*	*	*	*	*D:	*	*	*	*	*D:	*	*D:	*
*M2/2	*	*	*M2/2	*	*M2/2	*	*M2/2	*	*	*	*	*M2/2	*	*	*	*	*M2/2	*	*	*	*	*M2/2	*	*	*	*	*M2/2	*	*M2/2	*
*met(c|)	*	*	*met(c|)	*	*met(c|)	*	*met(c|)	*	*	*	*	*met(c|)	*	*	*	*	*met(c|)	*	*	*	*	*met(c|)	*	*	*	*	*met(c|)	*	*met(c|)	*
*mmet(c|)	*	*	*mmet(c|)	*	*mmet(c|)	*	*mmet(c|)	*	*	*	*	*mmet(c|)	*	*	*	*	*mmet(c|)	*	*	*	*	*mmet(c|)	*	*	*	*	*mmet(c|)	*	*mmet(c|)	*
*2\right	*	*	*2\right	*	*2\right	*	*2\right	*	*	*	*	*2\right	*	*	*	*	*2\right	*	*	*	*	*2\right	*	*	*	*	*2\right	*	*2\right	*
=1	=1	=1	=1	=1	=1	=1	=1	=1	=1	=1	=1	=1	=1	=1	=1	=1	=1	=1	=1	=1	=1	=1	=1	=1	=1	=1	=1	=1	=1	=1
!!LO:TX:a:t= :mod=Tutti
!	!	!LO:MO:null:mod=!LO&colon;DY&colon;ed=brack	!	!	!	!LO:MO:null:mod=!LO&colon;DY&colon;ed=brack	!	!	!	!	!	!	!	!	!	!	!	!	!	!	!	!	!	!	!	!	!	!	!	!
!	!	!	!	!	!	!	!	!	!	!	!	!	!	!	!	!	!	!	!	!	!	!LO:TX:t=P:problem=znaki: w źródle cc# zamiast c#	!	!	!	!	!	!	!	!
!LO:TX:a:i:t=allegro tutti:mod=	!	!LO:MO:null:mod=f	!LO:TX:a:i:t=allegro:mod=	!LO:DY:a:t=for	!LO:TX:a:i:t=allegro:mod=	!LO:MO:null:mod=f	!LO:TX:a:i:t=allegro:mod=	!	!	!	!	!LO:TX:a:i:t=allegro:mod=	!	!	!	!	!LO:TX:a:i:t=allegro:mod=	!	!	!	!	!LO:TX:a:i:t=allegro:mod=	!	!	!	!	!LO:TX:a:i:t=allegro:mod=	!LO:DY:a:t=for.	!LO:TX:a:i:t=allegro:mod=	!LO:DY:a:t=for
8D\L	.	.	8a/L	f	2ff# 2a 2d\	.	2D\	Ma-	Ma-	.	.	2A\	Ma-	Ma-	.	.	2f#\	Ma-	Ma-	.	.	2dd\	Ma-	Ma-	.	.	2d\	f	2f#\	f
8D\	.	.	8a/	.	.	.	.	.	.	.	.	.	.	.	.	.	.	.	.	.	.	.	.	.	.	.	.	.	.	.
8D\	.	.	8a/	.	.	.	.	.	.	.	.	.	.	.	.	.	.	.	.	.	.	.	.	.	.	.	.	.	.	.
8D\J	.	.	8a/J	.	.	.	.	.	.	.	.	.	.	.	.	.	.	.	.	.	.	.	.	.	.	.	.	.	.	.
*tremolo	*	*	*tremolo	*	*	*	*	*	*	*	*	*	*	*	*	*	*	*	*	*	*	*	*	*	*	*	*	*	*	*
8C#/L	6 5	.	8a/L	.	4.gg\	.	4C#/	-gni-	-gni-	.	.	4A\	-gni-	-gni-	.	.	4g\	-gni-	-gni-	.	.	4ee\	-gni-	-gni-	.	.	2A/	.	2e\	.
8C#/	.	.	8a/	.	.	.	.	.	.	.	.	.	.	.	.	.	.	.	.	.	.	.	.	.	.	.	.	.	.	.
8C#/	.	.	8a/	.	.	.	4C#/	-fi-	-fi-	.	.	4A\	-fi-	-fi-	.	.	4g\	-fi-	-fi-	.	.	4ee\	-fi-	-fi-	.	.	.	.	.	.
8C#/J	.	.	8a/J	.	16ff#\LL	.	.	.	.	.	.	.	.	.	.	.	.	.	.	.	.	.	.	.	.	.	.	.	.	.
.	.	.	.	.	16gg\JJ	.	.	.	.	.	.	.	.	.	.	.	.	.	.	.	.	.	.	.	.	.	.	.	.	.
=2	=2	=2	=2	=2	=2	=2	=2	=2	=2	=2	=2	=2	=2	=2	=2	=2	=2	=2	=2	=2	=2	=2	=2	=2	=2	=2	=2	=2	=2	=2
8D\L	.	.	8f#/L	.	4.aa\	.	2D\	-cat	-cat	.	.	2A\	-cat	-cat	.	.	2f#\	-cat	-cat	.	.	2dd\	-cat	-cat	.	.	2F#/	.	2d\	.
8D\	.	.	8f#/	.	.	.	.	.	.	.	.	.	.	.	.	.	.	.	.	.	.	.	.	.	.	.	.	.	.	.
8D\	.	.	8f#/	.	.	.	.	.	.	.	.	.	.	.	.	.	.	.	.	.	.	.	.	.	.	.	.	.	.	.
8D\J	.	.	8f#/J	.	8ff#\	.	.	.	.	.	.	.	.	.	.	.	.	.	.	.	.	.	.	.	.	.	.	.	.	.
8F#\L	6	.	8a/L	.	4dd\	.	2F#\	a-	a-	.	.	2A\	a-	a-	.	.	2f#\	a-	a-	.	.	2dd\	a-	a-	.	.	2d\	.	2f#\	.
8F#\	.	.	8a/	.	.	.	.	.	.	.	.	.	.	.	.	.	.	.	.	.	.	.	.	.	.	.	.	.	.	.
8F#\	.	.	8a/	.	4dd\	.	.	.	.	.	.	.	.	.	.	.	.	.	.	.	.	.	.	.	.	.	.	.	.	.
8F#\J	.	.	8a/J	.	.	.	.	.	.	.	.	.	.	.	.	.	.	.	.	.	.	.	.	.	.	.	.	.	.	.
=3	=3	=3	=3	=3	=3	=3	=3	=3	=3	=3	=3	=3	=3	=3	=3	=3	=3	=3	=3	=3	=3	=3	=3	=3	=3	=3	=3	=3	=3	=3
8G\L	6	.	8b\L	.	4.ee\	.	2G\	-ni-	-ni-	.	.	2B\	-ni-	-ni-	.	.	2g\	-ni-	-ni-	.	.	2ee\	-ni-	-ni-	.	.	2e\	.	2g\	.
8G\	.	.	8b\	.	.	.	.	.	.	.	.	.	.	.	.	.	.	.	.	.	.	.	.	.	.	.	.	.	.	.
8G\	.	.	8b\	.	.	.	.	.	.	.	.	.	.	.	.	.	.	.	.	.	.	.	.	.	.	.	.	.	.	.
8G\J	.	.	8b\J	.	16gg\LL	.	.	.	.	.	.	.	.	.	.	.	.	.	.	.	.	.	.	.	.	.	.	.	.	.
.	.	.	.	.	16ff#\JJ	.	.	.	.	.	.	.	.	.	.	.	.	.	.	.	.	.	.	.	.	.	.	.	.	.
8A\L	.	.	8cc#\L	.	4ee\	.	2A\	-ma	-ma	.	.	2A\	-ma	-ma	.	.	2e\	-ma	-ma	.	.	2cc#\	-ma	-ma	.	.	2A/	.	2e\	.
8A\	.	.	8cc#\	.	.	.	.	.	.	.	.	.	.	.	.	.	.	.	.	.	.	.	.	.	.	.	.	.	.	.
8A\	.	.	8cc#\	.	4ee\	.	.	.	.	.	.	.	.	.	.	.	.	.	.	.	.	.	.	.	.	.	.	.	.	.
8A\J	.	.	8cc#\J	.	.	.	.	.	.	.	.	.	.	.	.	.	.	.	.	.	.	.	.	.	.	.	.	.	.	.
=4	=4	=4	=4	=4	=4	=4	=4	=4	=4	=4	=4	=4	=4	=4	=4	=4	=4	=4	=4	=4	=4	=4	=4	=4	=4	=4	=4	=4	=4	=4
8D\L	.	.	8a/L	.	4ff#\	.	2D\	me-	me-	.	.	2A\	me-	me-	.	.	2f#\	me-	me-	.	.	2dd\	me-	me-	.	.	2F#/	.	2d\	.
8D\	.	.	8a/	.	.	.	.	.	.	.	.	.	.	.	.	.	.	.	.	.	.	.	.	.	.	.	.	.	.	.
8D\	.	.	8a/	.	16ff#\LL	.	.	.	.	.	.	.	.	.	.	.	.	.	.	.	.	.	.	.	.	.	.	.	.	.
.	.	.	.	.	16ee\	.	.	.	.	.	.	.	.	.	.	.	.	.	.	.	.	.	.	.	.	.	.	.	.	.
8D\J	.	.	8a/J	.	16ff#\	.	.	.	.	.	.	.	.	.	.	.	.	.	.	.	.	.	.	.	.	.	.	.	.	.
.	.	.	.	.	16gg\JJ	.	.	.	.	.	.	.	.	.	.	.	.	.	.	.	.	.	.	.	.	.	.	.	.	.
8F#\L	6	.	8a/L	.	4aa\	.	2F#\	-a	-a	.	.	2A\	-a	-a	.	.	2f#\	-a	-a	.	.	2dd\	-a	-a	.	.	2d\	.	2f#\	.
8F#\	.	.	8a/	.	.	.	.	.	.	.	.	.	.	.	.	.	.	.	.	.	.	.	.	.	.	.	.	.	.	.
8F#\	.	.	8a/	.	4dd\	.	.	.	.	.	.	.	.	.	.	.	.	.	.	.	.	.	.	.	.	.	.	.	.	.
8F#\J	.	.	8a/J	.	.	.	.	.	.	.	.	.	.	.	.	.	.	.	.	.	.	.	.	.	.	.	.	.	.	.
!	!	!	!LO:MO:mod=*null:null	!	!	!	!	!	!	!	!	!	!	!	!	!	!	!	!	!	!	!	!	!	!	!	!	!	!	!
*	*	*	*Xtremolo	*	*	*	*	*	*	*	*	*	*	*	*	*	*	*	*	*	*	*	*	*	*	*	*	*	*	*
=5	=5	=5	=5	=5	=5	=5	=5	=5	=5	=5	=5	=5	=5	=5	=5	=5	=5	=5	=5	=5	=5	=5	=5	=5	=5	=5	=5	=5	=5	=5
8G\L	6	.	8b\L	.	4.ee\	.	2G\	Do-	Do-	.	.	2B\	Do-	Do-	.	.	2g\	Do-	Do-	.	.	2ee\	Do-	Do-	.	.	2e\	.	2g\	.
8G\	.	.	8b\	.	.	.	.	.	.	.	.	.	.	.	.	.	.	.	.	.	.	.	.	.	.	.	.	.	.	.
8G\	.	.	8b\	.	.	.	.	.	.	.	.	.	.	.	.	.	.	.	.	.	.	.	.	.	.	.	.	.	.	.
8G\J	.	.	8b\J	.	16gg\LL	.	.	.	.	.	.	.	.	.	.	.	.	.	.	.	.	.	.	.	.	.	.	.	.	.
.	.	.	.	.	16ff#\JJ	.	.	.	.	.	.	.	.	.	.	.	.	.	.	.	.	.	.	.	.	.	.	.	.	.
*	*	*	*tremolo	*	*	*	*	*	*	*	*	*	*	*	*	*	*	*	*	*	*	*	*	*	*	*	*	*	*	*
8A\L	.	.	8cc#\L	.	4ee\	.	2A\	-mi-	-mi-	.	.	2A\	-mi-	-mi-	.	.	2e\	-mi-	-mi-	.	.	2cc#\	-mi-	-mi-	.	.	2A/	.	2e\	.
8A\	.	.	8cc#\	.	.	.	.	.	.	.	.	.	.	.	.	.	.	.	.	.	.	.	.	.	.	.	.	.	.	.
8A\	.	.	8cc#\	.	4ee\	.	.	.	.	.	.	.	.	.	.	.	.	.	.	.	.	.	.	.	.	.	.	.	.	.
8A\J	.	.	8cc#\J	.	.	.	.	.	.	.	.	.	.	.	.	.	.	.	.	.	.	.	.	.	.	.	.	.	.	.
*Xtremolo	*	*	*Xtremolo	*	*	*	*	*	*	*	*	*	*	*	*	*	*	*	*	*	*	*	*	*	*	*	*	*	*	*
!	!	!	!	!	!LO:LB:g=original	!	!	!	!	!	!	!	!	!	!	!	!	!	!	!	!	!	!	!	!	!	!	!	!	!
=6	=6	=6	=6	=6	=6	=6	=6	=6	=6	=6	=6	=6	=6	=6	=6	=6	=6	=6	=6	=6	=6	=6	=6	=6	=6	=6	=6	=6	=6	=6
4D\	.	.	4dd\	.	4ff#\	.	2D\	-num	-num.	.	.	2A\	-num	-num.	.	.	2f#\	-num	-num.	.	.	2dd\	-num	-num.	.	.	4F#/	.	4d\	.
4d\	.	.	8dd\L	.	8ff#\L	.	.	.	.	.	.	.	.	.	.	.	.	.	.	.	.	.	.	.	.	.	4F#/	.	4d\	.
.	.	.	8ff#\J	.	8aa\J	.	.	.	.	.	.	.	.	.	.	.	.	.	.	.	.	.	.	.	.	.	.	.	.	.
4D\	.	.	4dd 4f#\	.	4ff# 4a 4d\	.	2r	.	.	.	.	2r	.	.	.	.	2r	.	.	.	.	2r	.	.	.	.	4F#/	.	4d\	.
4r	.	.	4r	.	4r	.	.	.	.	.	.	.	.	.	.	.	.	.	.	.	.	.	.	.	.	.	4r	.	4r	.
=7	=7	=7	=7	=7	=7	=7	=7	=7	=7	=7	=7	=7	=7	=7	=7	=7	=7	=7	=7	=7	=7	=7	=7	=7	=7	=7	=7	=7	=7	=7
!	!	!	!LO:TX:a:i:t=dol&colon;:mod=dolce	!LO:MO:null:mod=p	!LO:TX:a:i:t=dol.:mod=dolce	!LO:MO:null:mod=p	!	!	!	!	!	!	!	!	!	!	!	!	!	!	!	!	!	!	!	!	!	!	!	!
!	!	!	!	!	!LO:SIC:s=8dd|\L	!	!	!	!	!	!	!	!	!	!	!	!	!	!	!	!	!	!	!	!	!	!	!	!	!
1r	.	.	8d|/L	.	8dd\L	.	1r	.	.	.	.	1r	.	.	.	.	1r	.	.	.	.	1r	.	.	.	.	1r	.	1r	.
.	.	.	8e|/	.	8ee|\	.	.	.	.	.	.	.	.	.	.	.	.	.	.	.	.	.	.	.	.	.	.	.	.	.
!	!	!	!	!LO:DY:a:t=p.	!	!LO:DY:a:t=p.	!	!	!	!	!	!	!	!	!	!	!	!	!	!	!	!	!	!	!	!	!	!	!	!
!	!	!	!	!LO:MO:mod=.	!	!LO:MO:mod=.	!	!	!	!	!	!	!	!	!	!	!	!	!	!	!	!	!	!	!	!	!	!	!	!
.	.	.	8f#|/	p	8ff#|\	p	.	.	.	.	.	.	.	.	.	.	.	.	.	.	.	.	.	.	.	.	.	.	.	.
.	.	.	8g|/J	.	8gg|\J	.	.	.	.	.	.	.	.	.	.	.	.	.	.	.	.	.	.	.	.	.	.	.	.	.
!	!	!	!LO:LB:g=original	!	!	!	!	!	!	!	!	!	!	!	!	!	!	!	!	!	!	!	!	!	!	!	!	!	!	!
.	.	.	8a|/L	.	8aa|\L	.	.	.	.	.	.	.	.	.	.	.	.	.	.	.	.	.	.	.	.	.	.	.	.	.
.	.	.	8g|/	.	8gg|\	.	.	.	.	.	.	.	.	.	.	.	.	.	.	.	.	.	.	.	.	.	.	.	.	.
.	.	.	8f#|/	.	8ff#|\	.	.	.	.	.	.	.	.	.	.	.	.	.	.	.	.	.	.	.	.	.	.	.	.	.
.	.	.	8e|/J	.	8ee|\J	.	.	.	.	.	.	.	.	.	.	.	.	.	.	.	.	.	.	.	.	.	.	.	.	.
=8	=8	=8	=8	=8	=8	=8	=8	=8	=8	=8	=8	=8	=8	=8	=8	=8	=8	=8	=8	=8	=8	=8	=8	=8	=8	=8	=8	=8	=8	=8
!	!	!	!	!	!	!	!	!	!	!LO:DY:a:t=p.	!	!	!	!	!	!	!	!	!	!LO:DY:a:t=p.	!	!	!	!	!LO:DY:a:t=p.	!LO:DY:a:t=p	!	!	!	!
4r	.	.	(8e/L	.	(8ee\L	.	4r	.	.	p	.	4r	.	.	p	.	4r	.	.	p	.	4r	.	.	p	.	4r	.	4r	.
.	.	.	8d/J)	.	8dd\J)	.	.	.	.	.	.	.	.	.	.	.	.	.	.	.	.	.	.	.	.	.	.	.	.	.
!	!	!LO:DY:a:t=p.	!	!	!	!	!	!	!	!	!	!	!	!	!	!	!	!	!	!	!	!	!	!	!	!	!	!LO:DY:a:t=p.	!	!LO:DY:a:t=p.
4D\	.	p	2d/	.	2dd\	.	4D\	et	Et	.	p	4A\	Et	Et	.	p	4f#\	et	Et	.	p	4dd\	Et	Et	.	p	4F#/	p	4d\	p
!	!	!	!	!	!	!	!	!	!	!	!	!	!	!	!	!	!LO:LB:g=original	!	!	!	!	!	!	!	!	!	!	!	!	!
4F#\	.	.	.	.	.	.	4F#\	e-	ex-	.	.	4A\	e-	ex-	.	.	4f#\	e-	ex-	.	.	4dd\	e-	ex-	.	.	4F#/	.	4d\	.
4D\	.	.	8f#/L	.	8ff#\L	.	4D\	-xul-	-sul-	.	.	4A\	-xul-	-sul-	.	.	4f#\	-xul-	-sul-	.	.	4dd\	-xul-	-sul-	.	.	4F#/	.	4d\	.
.	.	.	8d/J	.	8dd\J	.	.	.	.	.	.	.	.	.	.	.	.	.	.	.	.	.	.	.	.	.	.	.	.	.
!	!	!	!	!	!	!	!LO:LB:g=original	!	!	!	!	!	!	!	!	!	!	!	!	!	!	!LO:LB:g=original	!	!	!	!	!	!	!	!
=9	=9	=9	=9	=9	=9	=9	=9	=9	=9	=9	=9	=9	=9	=9	=9	=9	=9	=9	=9	=9	=9	=9	=9	=9	=9	=9	=9	=9	=9	=9
4A\	.	.	8c#|/L	.	8cc#|\L	.	4A\	-ta-	-ta-	.	.	4A\	-ta-	-ta-	.	.	4e\	-ta-	-ta-	.	.	4cc#\	-ta-	-ta-	.	.	4A/	.	4e\	.
.	.	.	8d|/	.	8dd|\	.	.	.	.	.	.	.	.	.	.	.	.	.	.	.	.	.	.	.	.	.	.	.	.	.
4AA/	.	.	8e|/	.	8ee|\	.	4AA/	-vit	-vit	.	.	4A\	-vit	-vit	.	.	4e\	-vit	-vit	.	.	4cc#\	-vit	-vit	.	.	4A/	.	4e\	.
.	.	.	8f#|/J	.	8ff#|\J	.	.	.	.	.	.	.	.	.	.	.	.	.	.	.	.	.	.	.	.	.	.	.	.	.
2r	.	.	8g|/L	.	8gg|\L	.	2r	.	.	.	.	2r	.	.	.	.	2r	.	.	.	.	2r	.	.	.	.	2r	.	2r	.
.	.	.	8f#|/	.	8ff#|\	.	.	.	.	.	.	.	.	.	.	.	.	.	.	.	.	.	.	.	.	.	.	.	.	.
.	.	.	8e|/	.	8ee|\	.	.	.	.	.	.	.	.	.	.	.	.	.	.	.	.	.	.	.	.	.	.	.	.	.
.	.	.	8d|/J	.	8dd|\J	.	.	.	.	.	.	.	.	.	.	.	.	.	.	.	.	.	.	.	.	.	.	.	.	.
!LO:LB:g=original	!	!	!	!	!	!	!	!	!	!	!	!LO:LB:g=original	!	!	!	!	!	!	!	!	!	!	!	!	!	!	!	!	!	!
=10	=10	=10	=10	=10	=10	=10	=10	=10	=10	=10	=10	=10	=10	=10	=10	=10	=10	=10	=10	=10	=10	=10	=10	=10	=10	=10	=10	=10	=10	=10
!	!	!	!	!	!LO:SIC:s=(8dd\L	!	!	!	!	!	!	!	!	!	!	!	!	!	!	!	!	!	!	!	!	!	!	!	!	!
4r	.	.	(8d/L	.	8dd\L	.	4r	.	.	.	.	4r	.	.	.	.	4r	.	.	.	.	4r	.	.	.	.	4r	.	4r	.
!	!	!	!	!	!LO:SIC:s=8cc#\J)	!	!	!	!	!	!	!	!	!	!	!	!	!	!	!	!	!	!	!	!	!	!	!	!	!
.	.	.	8c#/J)	.	8cc#\J	.	.	.	.	.	.	.	.	.	.	.	.	.	.	.	.	.	.	.	.	.	.	.	.	.
4AA/	.	.	2c#/	.	2cc#\	.	4A\	Spi-	spi-	.	.	4A\	Spi-	spi-	.	.	4e\	Spi-	spi-	.	.	4cc#\	Spi-	spi-	.	.	4A/	.	4e\	.
4A\	.	.	.	.	.	.	4A\	-ri-	-ri-	.	.	4A\	-ri-	-ri-	.	.	4e\	-ri-	-ri-	.	.	4cc#\	-ri-	-ri-	.	.	4A/	.	4e\	.
4AA/	.	.	8B/L	.	8b\L	.	4A\	-tus	-tus	.	.	4A\	-tus	-tus	.	.	4e\	-tus	-tus	.	.	4cc#\	-tus	-tus	.	.	4A/	.	4e\	.
.	.	.	8c#/J	.	8cc#\J	.	.	.	.	.	.	.	.	.	.	.	.	.	.	.	.	.	.	.	.	.	.	.	.	.
=11	=11	=11	=11	=11	=11	=11	=11	=11	=11	=11	=11	=11	=11	=11	=11	=11	=11	=11	=11	=11	=11	=11	=11	=11	=11	=11	=11	=11	=11	=11
4D\	.	.	8d|/L	.	8dd|\L	.	4d\	me-	me-	.	.	4A\	me-	me-	.	.	4f#\	me-	me-	.	.	4dd\	me-	me-	.	.	4F#/	.	4d\	.
.	.	.	8e|/	.	8ee|\	.	.	.	.	.	.	.	.	.	.	.	.	.	.	.	.	.	.	.	.	.	.	.	.	.
4D\	.	.	8f#|/	.	8ff#|\	.	4D\	-us	-us,	.	.	4A\	-us	-us,	.	.	4f#\	-us	-us,	.	.	4dd\	-us	-us,	.	.	4F#/	.	4d\	.
.	.	.	8g|/J	.	8gg|\J	.	.	.	.	.	.	.	.	.	.	.	.	.	.	.	.	.	.	.	.	.	.	.	.	.
4r	.	.	8a|/L	.	8aa|\L	.	4r	.	.	.	.	4r	.	.	.	.	4r	.	.	.	.	4r	.	.	.	.	2r	.	2r	.
.	.	.	8f#|/	.	8ff#|\	.	.	.	.	.	.	.	.	.	.	.	.	.	.	.	.	.	.	.	.	.	.	.	.	.
4F#\	6 3	.	8e|/	.	8ee|\	.	4F#\	et	et	.	.	4A\	et	et	.	.	4a\	et	et	.	.	4dd\	et	et	.	.	.	.	.	.
.	.	.	8d|/J	.	8dd|\J	.	.	.	.	.	.	.	.	.	.	.	.	.	.	.	.	.	.	.	.	.	.	.	.	.
!	!	!	!	!	!LO:LB:g=original	!	!	!	!	!	!	!	!	!	!	!	!	!	!	!	!	!	!	!	!	!	!LO:LB:g=original	!	!LO:LB:g=original	!
=12	=12	=12	=12	=12	=12	=12	=12	=12	=12	=12	=12	=12	=12	=12	=12	=12	=12	=12	=12	=12	=12	=12	=12	=12	=12	=12	=12	=12	=12	=12
2G\	6 3	.	(8d#X/L	.	(8dd#X\L	.	2G\	e-	ex-	.	.	2B\	e-	ex-	.	.	2b\	ex-	ex-	.	.	2ee\	ex-	ex-	.	.	0r	.	0r	.
.	.	.	8e/J)	.	8ee\J)	.	.	.	.	.	.	.	.	.	.	.	.	.	.	.	.	.	.	.	.	.	.	.	.	.
!	!	!	!	!	!LO:SIC:s=(2ee\	!	!	!	!	!	!	!	!	!	!	!	!	!	!	!	!	!	!	!	!	!	!	!	!	!
.	.	.	(2e/	.	2ee|\	.	.	.	.	.	.	.	.	.	.	.	.	.	.	.	.	.	.	.	.	.	.	.	.	.
2A\	6 3	.	.	.	.	.	2A\	-xul-	-sul-	.	.	2A\	-xul-	-sul-	.	.	2cc#\	-ul-	-sul-	.	.	2ff#\	-ul-	-sul-	.	.	.	.	.	.
!	!	!	!	!	!LO:SIC:s=4ff#\)	!	!	!	!	!	!	!	!	!	!	!	!	!	!	!	!	!	!	!	!	!	!	!	!	!
.	.	.	4f#/)	.	4ff#\	.	.	.	.	.	.	.	.	.	.	.	.	.	.	.	.	.	.	.	.	.	.	.	.	.
=13	=13	=13	=13	=13	=13	=13	=13	=13	=13	=13	=13	=13	=13	=13	=13	=13	=13	=13	=13	=13	=13	=13	=13	=13	=13	=13	=13	=13	=13	=13
2B\	6 3	.	(8a/L	.	(8aa\L	.	2B\	-ta-	-ta-	.	.	2G/	-ta-	-ta-	.	.	2dd\	-ta-	-ta-	.	.	2gg\	-ta-	-ta-	.	.	.	.	.	.
.	.	.	8g/J)	.	8gg\J)	.	.	.	.	.	.	.	.	.	.	.	.	.	.	.	.	.	.	.	.	.	.	.	.	.
.	.	.	(2g/	.	(2gg\	.	.	.	.	.	.	.	.	.	.	.	.	.	.	.	.	.	.	.	.	.	.	.	.	.
2A\	6 3	.	.	.	.	.	2A\	-vit	-vit	.	.	2A\	-vit	-vit	.	.	2cc#\	-vit	-vit	.	.	2ff#\	-vit	-vit	.	.	.	.	.	.
.	.	.	4f#/)	.	4ff#\)	.	.	.	.	.	.	.	.	.	.	.	.	.	.	.	.	.	.	.	.	.	.	.	.	.
!	!	!	!LO:LB:g=original	!	!	!	!	!	!	!	!	!	!	!	!	!	!	!	!	!	!	!	!	!	!	!	!	!	!	!
=14	=14	=14	=14	=14	=14	=14	=14	=14	=14	=14	=14	=14	=14	=14	=14	=14	=14	=14	=14	=14	=14	=14	=14	=14	=14	=14	=14	=14	=14	=14
2G\	6 3	.	(8f#/L	.	(8ff#\L	.	2G\	Spi-	spi-	.	.	2B\	Spi-	spi-	.	.	2b\	Spi-	spi-	.	.	2ee\	Spi-	spi-	.	.	1r	.	1r	.
.	.	.	8e/J)	.	8ee\J)	.	.	.	.	.	.	.	.	.	.	.	.	.	.	.	.	.	.	.	.	.	.	.	.	.
.	.	.	(2e/	.	(2ee\	.	.	.	.	.	.	.	.	.	.	.	.	.	.	.	.	.	.	.	.	.	.	.	.	.
2G#X\	6 5	.	.	.	.	.	4G#X\	-ri-	-ri-	.	.	4B\	-ri-	-ri-	.	.	4b\	-ri-	-ri-	.	.	4dd\	-ri-	-ri-	.	.	.	.	.	.
.	.	.	4d/)	.	4dd\)	.	4G#\	-tus	-tus	.	.	4B\	-tus	-tus	.	.	4b\	-tus	-tus	.	.	4dd\	-tus	-tus	.	.	.	.	.	.
=15	=15	=15	=15	=15	=15	=15	=15	=15	=15	=15	=15	=15	=15	=15	=15	=15	=15	=15	=15	=15	=15	=15	=15	=15	=15	=15	=15	=15	=15	=15
!	!	!	!	!	!	!LO:DY:a:t=for	!	!	!	!	!	!	!	!	!	!	!	!	!	!	!	!	!	!	!	!	!	!	!	!
!	!	!	!	!	!	!LO:MO:mod=.	!	!	!	!	!	!	!	!	!	!	!	!	!	!	!	!LO:SIC:v:s=4cc#\	!	!	!	!	!	!	!	!
4A\	3	.	4c#/	.	4cc#\	f	4A\	me-	me-	.	.	4A\	me-	me-	.	.	4e\	me-	me-	.	.	4dd\	me-	me-	.	.	2r	.	2r	.
!LO:TX:a:i:t=tutti:mod=	!	!	!	!LO:DY:a:t=for	!	!	!	!	!	!	!	!	!	!	!	!	!	!	!	!LO:DY:a:t=for	!LO:DY:a:t=for	!	!	!	!	!	!	!	!	!
!	!	!	!	!LO:MO:mod=.	!	!	!	!	!	!	!	!	!	!	!	!	!	!	!	!LO:MO:mod=.	!LO:MO:mod=.	!	!	!	!	!	!	!	!	!
4AA/	.	.	8r	f	8r	.	4AA/	-us	-us	.	.	4A\	-us	-us	.	.	4e\	-us	-us	f	f	4cc#\	-us	-us	.	.	.	.	.	.
!	!	!	!LO:MO:mod=*null:null	!	!	!	!	!	!	!	!	!	!	!	!	!	!	!	!	!	!	!	!	!	!	!	!	!	!	!
*	*	*	*Xtuplet	*	*	*	*	*	*	*	*	*	*	*	*	*	*	*	*	*	*	*	*	*	*	*	*	*	*	*
!	!	!	!	!LO:MO:null:mod=f	!LO:TUP:a:problem=klamra łukowa	!LO:MO:null:mod=f	!	!	!	!	!	!	!	!	!	!	!	!	!	!	!	!	!	!	!	!	!	!	!	!
.	.	.	24e/LL	.	24ee\LL	.	.	.	.	.	.	.	.	.	.	.	.	.	.	.	.	.	.	.	.	.	.	.	.	.
.	.	.	24f#/	.	24ff#\	.	.	.	.	.	.	.	.	.	.	.	.	.	.	.	.	.	.	.	.	.	.	.	.	.
.	.	.	24g#X/JJ	.	24gg#X\JJ	.	.	.	.	.	.	.	.	.	.	.	.	.	.	.	.	.	.	.	.	.	.	.	.	.
!!LO:TX:a:t= :mod=Tutti
4r	.	.	8a|/L	.	8aa|\L	.	4r	.	.	.	.	4r	.	.	.	.	4r	.	.	.	.	4r	.	.	.	.	4r	.	4r	.
.	.	.	8a|/	.	8aa|\	.	.	.	.	.	.	.	.	.	.	.	.	.	.	.	.	.	.	.	.	.	.	.	.	.
!	!	!	!	!	!	!	!	!	!	!	!LO:DY:ed=brack	!	!	!	!LO:DY:a:rj:t=for	!LO:DY:a:rj:t=for	!	!	!	!	!LO:DY:ed=brack	!	!	!	!LO:MO:null:mod=f	!LO:MO:null:mod=f	!	!LO:DY:a:t=for	!	!LO:DY:a:t=for
4c#\	6 n5r	.	8gn|/	.	8ggn|\	.	4c#\	in	in	.	f	4A\	in	in	f	f	4g\	in	in	.	f	4ee\	in	in	.	.	4A/	f	4e\	f
.	.	.	8g|/J	.	8gg|\J	.	.	.	.	.	.	.	.	.	.	.	.	.	.	.	.	.	.	.	.	.	.	.	.	.
!	!	!	!	!	!	!	!	!	!	!	!	!	!	!	!	!	!LO:LB:g=original	!	!	!	!	!	!	!	!	!	!	!	!	!
=16	=16	=16	=16	=16	=16	=16	=16	=16	=16	=16	=16	=16	=16	=16	=16	=16	=16	=16	=16	=16	=16	=16	=16	=16	=16	=16	=16	=16	=16	=16
!	!	!	!LO:SIC:s=4f#|/	!	!	!	!	!	!	!	!	!LO:SIC:v:s=4A\	!	!	!	!	!	!	!	!	!	!	!	!	!	!	!	!	!	!
4d\	.	.	4f#/	.	4ff#|\	.	4d\	De-	De-	.	.	4G\	De-	De-	.	.	4f#\	De-	De-	.	.	4dd\	De-	De-	.	.	4d\	.	4f#\	.
4d\	.	.	8r	.	8r	.	4d\	-o	-o	.	.	4A\	-o	-o	.	.	4f#\	-o	-o	.	.	4dd\	-o	-o	.	.	4d\	.	4f#\	.
.	.	.	(16d/LL	.	(16dd\LL	.	.	.	.	.	.	.	.	.	.	.	.	.	.	.	.	.	.	.	.	.	.	.	.	.
.	.	.	16e/JJ)	.	16ee\JJ)	.	.	.	.	.	.	.	.	.	.	.	.	.	.	.	.	.	.	.	.	.	.	.	.	.
4r	.	.	8f#|/L	.	8ff#|\L	.	4r	.	.	.	.	4r	.	.	.	.	4r	.	.	.	.	4r	.	.	.	.	4r	.	4r	.
.	.	.	8g#X|/J	.	8gg#X|\J	.	.	.	.	.	.	.	.	.	.	.	.	.	.	.	.	.	.	.	.	.	.	.	.	.
*	*	*	*	*	*	*	*	*	*	*	*	*	*ij	*ij	*	*	*	*ij	*ij	*	*	*	*ij	*ij	*	*	*	*	*	*
!	!	!	!	!	!	!	!	!	!	!	!	!	!	!	!	!	!	!	!	!	!	!LO:LB:g=original	!	!	!	!	!	!	!	!
4B\	#6\ 5	.	(8.g#/L	.	8.gg#t\L	.	4B\	in	in	.	.	4e\	in	in	.	.	4g#X\	in	in	.	.	4dd\	in	in	.	.	4e\	.	4e\	.
.	.	.	32f#/LL	.	(32ff#\LL	.	.	.	.	.	.	.	.	.	.	.	.	.	.	.	.	.	.	.	.	.	.	.	.	.
.	.	.	32g#/JJJ)	.	32gg#\JJJ)	.	.	.	.	.	.	.	.	.	.	.	.	.	.	.	.	.	.	.	.	.	.	.	.	.
!	!	!	!	!	!	!	!LO:LB:g=original	!	!	!	!	!	!	!	!	!	!	!	!	!	!	!	!	!	!	!	!	!	!	!
=17	=17	=17	=17	=17	=17	=17	=17	=17	=17	=17	=17	=17	=17	=17	=17	=17	=17	=17	=17	=17	=17	=17	=17	=17	=17	=17	=17	=17	=17	=17
4A\	.	.	4a|/	.	4aa|\	.	4A\	De-	De-	.	.	4e\	De-	De-	.	.	4a\	De-	De-	.	.	4cc#\	De-	De-	.	.	4A/	.	4e\	.
4A\	.	.	8r	.	8r	.	4A\	-o	-o	.	.	4e\	-o	-o	.	.	4a\	-o	-o	.	.	4cc#\	-o	-o	.	.	4A/	.	4e\	.
*	*	*	*tuplet	*	*	*	*	*	*	*	*	*	*	*	*	*	*	*	*	*	*	*	*	*	*	*	*	*	*	*
!	!	!	!LO:TUP:b:problem=klamra łukowa	!	!LO:TUP:a:problem=klamra łukowa	!	!	!	!	!	!	!	!	!	!	!	!	!	!	!	!	!	!	!	!	!	!	!	!	!
.	.	.	24e/LL	.	24ee\LL	.	.	.	.	.	.	.	.	.	.	.	.	.	.	.	.	.	.	.	.	.	.	.	.	.
.	.	.	24f#/	.	24ff#\	.	.	.	.	.	.	.	.	.	.	.	.	.	.	.	.	.	.	.	.	.	.	.	.	.
.	.	.	24g#X/JJ	.	24gg#X\JJ	.	.	.	.	.	.	.	.	.	.	.	.	.	.	.	.	.	.	.	.	.	.	.	.	.
!	!	!	!	!	!LO:LB:g=original	!	!	!	!	!	!	!	!	!	!	!	!	!	!	!	!	!	!	!	!	!	!	!	!	!
4r	.	.	8a|/L	.	8aa|\L	.	4r	.	.	.	.	4r	.	.	.	.	4r	.	.	.	.	4r	.	.	.	.	4r	.	4r	.
.	.	.	8a|/	.	8aa|\	.	.	.	.	.	.	.	.	.	.	.	.	.	.	.	.	.	.	.	.	.	.	.	.	.
*	*	*	*	*	*	*	*	*ij	*ij	*	*	*	*	*	*	*	*	*	*	*	*	*	*	*	*	*	*	*	*	*
4c#\	6 n5r	.	8gn|/	.	8ggn|\	.	4c#\	in	in	.	.	4A\	in	in	.	.	4gn\	in	in	.	.	4ee\	in	in	.	.	4A/	.	4e\	.
.	.	.	8g|/J	.	8gg|\J	.	.	.	.	.	.	.	.	.	.	.	.	.	.	.	.	.	.	.	.	.	.	.	.	.
=18	=18	=18	=18	=18	=18	=18	=18	=18	=18	=18	=18	=18	=18	=18	=18	=18	=18	=18	=18	=18	=18	=18	=18	=18	=18	=18	=18	=18	=18	=18
4d\	.	.	4f#|/	.	4ff#|\	.	4d\	De-	De-	.	.	4A\	De-	De-	.	.	4f#\	De-	De-	.	.	4dd\	De-	De-	.	.	4d\	.	4f#\	.
4d\	.	.	8r	.	8r	.	4d\	-o	-o	.	.	4A\	-o	-o	.	.	4f#\	-o	-o	.	.	4dd\	-o	-o	.	.	4d\	.	4f#\	.
.	.	.	(16d/LL	.	(16dd\LL	.	.	.	.	.	.	.	.	.	.	.	.	.	.	.	.	.	.	.	.	.	.	.	.	.
.	.	.	16e/JJ)	.	16ee\JJ)	.	.	.	.	.	.	.	.	.	.	.	.	.	.	.	.	.	.	.	.	.	.	.	.	.
!	!	!	!	!	!	!	!	!	!	!	!	!LO:LB:g=original	!	!	!	!	!	!	!	!	!	!	!	!	!	!	!	!	!	!
4r	.	.	8f#|/L	.	8ff#|\L	.	4r	.	.	.	.	4r	.	.	.	.	4r	.	.	.	.	4r	.	.	.	.	4r	.	4r	.
.	.	.	8g#X|/J	.	8gg#X|\J	.	.	.	.	.	.	.	.	.	.	.	.	.	.	.	.	.	.	.	.	.	.	.	.	.
4B\	#6\ 3	.	8.g#t/L	.	(8.gg#\L	.	4B\	in	in	.	.	4e\	in	in	.	.	4g#X\	in	in	.	.	4dd\	in	in	.	.	4e\	.	4e\	.
.	.	.	(32f#/LL	.	32ff#\LL	.	.	.	.	.	.	.	.	.	.	.	.	.	.	.	.	.	.	.	.	.	.	.	.	.
.	.	.	32g#/JJJ)	.	32gg#\JJJ)	.	.	.	.	.	.	.	.	.	.	.	.	.	.	.	.	.	.	.	.	.	.	.	.	.
!	!	!	!LO:LB:g=original	!	!	!	!	!	!	!	!	!	!	!	!	!	!	!	!	!	!	!	!	!	!	!	!	!	!	!
=19	=19	=19	=19	=19	=19	=19	=19	=19	=19	=19	=19	=19	=19	=19	=19	=19	=19	=19	=19	=19	=19	=19	=19	=19	=19	=19	=19	=19	=19	=19
!	!	!	!LO:SIC:s=4a|/	!	!	!	!	!	!	!	!	!	!	!	!	!	!	!	!	!	!	!	!	!	!	!	!	!	!	!
4A\	.	.	4a/	.	4aa|\	.	4A\	De-	De-	.	.	4e\	De-	De-	.	.	4a\	De-	De-	.	.	4cc#\	De-	De-	.	.	4A/	.	4e\	.
4A\	.	.	8r	.	8r	.	4A\	-o	-o	.	.	4e\	-o	-o	.	.	4a\	-o	-o	.	.	4cc#\	-o	-o	.	.	4A/	.	4e\	.
!	!	!	!LO:TUP:b:problem=klamra łukowa	!	!LO:TUP:a:problem=klamra łukowa	!	!	!	!	!	!	!	!	!	!	!	!	!	!	!	!	!	!	!	!	!	!	!	!	!
.	.	.	24e/LL	.	24ee\LL	.	.	.	.	.	.	.	.	.	.	.	.	.	.	.	.	.	.	.	.	.	.	.	.	.
.	.	.	24f#/	.	24ff#\	.	.	.	.	.	.	.	.	.	.	.	.	.	.	.	.	.	.	.	.	.	.	.	.	.
.	.	.	24g#X/JJ	.	24gg#X\JJ	.	.	.	.	.	.	.	.	.	.	.	.	.	.	.	.	.	.	.	.	.	.	.	.	.
4r	.	.	8a|/L	.	8aa|\L	.	4r	.	.	.	.	4r	.	.	.	.	4r	.	.	.	.	4r	.	.	.	.	4r	.	4r	.
.	.	.	8a|/	.	8aa|\	.	.	.	.	.	.	.	.	.	.	.	.	.	.	.	.	.	.	.	.	.	.	.	.	.
4c#\	6 n5r	.	8gn|/	.	8ggn|\	.	4c#\	in	in	.	.	4e\	in	in	.	.	4a\	in	in	.	.	4ee\	in	in	.	.	4A/	.	4e\	.
.	.	.	8g|/J	.	8gg|\J	.	.	.	.	.	.	.	.	.	.	.	.	.	.	.	.	.	.	.	.	.	.	.	.	.
!LO:LB:g=original	!	!	!	!	!	!	!	!	!	!	!	!	!	!	!	!	!	!	!	!	!	!	!	!	!	!	!	!	!	!
=20	=20	=20	=20	=20	=20	=20	=20	=20	=20	=20	=20	=20	=20	=20	=20	=20	=20	=20	=20	=20	=20	=20	=20	=20	=20	=20	=20	=20	=20	=20
8d\L	.	.	8f#/L	.	8gg\L	.	2d\	De-	De-	.	.	2d\	De-	De-	.	.	2a\	De-	De-	.	.	2ff#\	De-	De-	.	.	2d\	.	2f#\	.
8d\	.	.	8f#/	.	8ff#\J	.	.	.	.	.	.	.	.	.	.	.	.	.	.	.	.	.	.	.	.	.	.	.	.	.
8d\	.	.	8f#/	.	2aa\	.	.	.	.	.	.	.	.	.	.	.	.	.	.	.	.	.	.	.	.	.	.	.	.	.
8d\J	.	.	8f#/J	.	.	.	.	.	.	.	.	.	.	.	.	.	.	.	.	.	.	.	.	.	.	.	.	.	.	.
*tremolo	*	*	*	*	*	*	*	*	*	*	*	*	*	*	*	*	*	*	*	*	*	*	*	*	*	*	*	*	*	*
8c#\L	6	.	8e/L	.	.	.	2c#\	-o	-o	.	.	2e\	-o	-o	.	.	2a\	-o	-o	.	.	2ee\	-o	-o	.	.	2A/	.	2e\	.
*	*	*	*	*	*	*	*	*Xij	*Xij	*	*	*	*Xij	*Xij	*	*	*	*Xij	*Xij	*	*	*	*Xij	*Xij	*	*	*	*	*	*
8c#\	.	.	8e/	.	.	.	.	.	.	.	.	.	.	.	.	.	.	.	.	.	.	.	.	.	.	.	.	.	.	.
8c#\	.	.	8a/	.	16aa\LL	.	.	.	.	.	.	.	.	.	.	.	.	.	.	.	.	.	.	.	.	.	.	.	.	.
.	.	.	.	.	16gg\	.	.	.	.	.	.	.	.	.	.	.	.	.	.	.	.	.	.	.	.	.	.	.	.	.
8c#\J	.	.	8a/J	.	16ff#\	.	.	.	.	.	.	.	.	.	.	.	.	.	.	.	.	.	.	.	.	.	.	.	.	.
.	.	.	.	.	16ee\JJ	.	.	.	.	.	.	.	.	.	.	.	.	.	.	.	.	.	.	.	.	.	.	.	.	.
*Xtremolo	*	*	*	*	*	*	*	*	*	*	*	*	*	*	*	*	*	*	*	*	*	*	*	*	*	*	*	*	*	*
=21	=21	=21	=21	=21	=21	=21	=21	=21	=21	=21	=21	=21	=21	=21	=21	=21	=21	=21	=21	=21	=21	=21	=21	=21	=21	=21	=21	=21	=21	=21
8B\L	#6\_ 3_	.	8dd\L	.	8ff#\L	.	2B\	Sa-	sa-	.	.	2e\	Sa-	sa-	.	.	2g#X\	Sa-	sa-	.	.	2dd\	Sa-	sa-	.	.	2e\	.	1e	.
8B\	x x	.	8dd\	.	8gg#X\J	.	.	.	.	.	.	.	.	.	.	.	.	.	.	.	.	.	.	.	.	.	.	.	.	.
8B\	x x	.	8dd\	.	4.gg#\	.	.	.	.	.	.	.	.	.	.	.	.	.	.	.	.	.	.	.	.	.	.	.	.	.
8B\J	x x	.	8dd\J	.	.	.	.	.	.	.	.	.	.	.	.	.	.	.	.	.	.	.	.	.	.	.	.	.	.	.
*tremolo	*	*	*tremolo	*	*	*	*	*	*	*	*	*	*	*	*	*	*	*	*	*	*	*	*	*	*	*	*	*	*	*
8A\L	.	.	8cc#\L	.	.	.	2A\	-lu-	-lu-	.	.	2e\	-lu-	-lu-	.	.	2a\	-lu-	-lu-	.	.	2cc#\	-lu-	-lu-	.	.	2A/	.	.	.
8A\	.	.	8cc#\	.	8aa\	.	.	.	.	.	.	.	.	.	.	.	.	.	.	.	.	.	.	.	.	.	.	.	.	.
8A\	.	.	8cc#\	.	8aa\L	.	.	.	.	.	.	.	.	.	.	.	.	.	.	.	.	.	.	.	.	.	.	.	.	.
8A\J	.	.	8cc#\J	.	16gg#\L	.	.	.	.	.	.	.	.	.	.	.	.	.	.	.	.	.	.	.	.	.	.	.	.	.
.	.	.	.	.	16aa\JJ	.	.	.	.	.	.	.	.	.	.	.	.	.	.	.	.	.	.	.	.	.	.	.	.	.
*Xtremolo	*	*	*Xtremolo	*	*	*	*	*	*	*	*	*	*	*	*	*	*	*	*	*	*	*	*	*	*	*	*	*	*	*
!	!	!	!	!	!LO:PB:g=original	!	!	!	!	!	!	!	!	!	!	!	!	!	!	!	!	!	!	!	!	!	!	!	!	!
=22	=22	=22	=22	=22	=22	=22	=22	=22	=22	=22	=22	=22	=22	=22	=22	=22	=22	=22	=22	=22	=22	=22	=22	=22	=22	=22	=22	=22	=22	=22
8D\L	6_	.	4b\	.	4ff#\	.	4d\	-ta-	-ta-	.	.	4f#\	-ta-	-ta-	.	.	4b\	-ta-	-ta-	.	.	4dd\	-ta-	-ta-	.	.	2d\	.	2f#\	.
8D\	x	.	.	.	.	.	.	.	.	.	.	.	.	.	.	.	.	.	.	.	.	.	.	.	.	.	.	.	.	.
8D\	x	.	8dd\L	.	8ff#\L	.	4d\	-ri	-ri	.	.	4f#\	-ri	-ri	.	.	4b\	-ri	-ri	.	.	4dd\	-ri	-ri	.	.	.	.	.	.
8D\J	x	.	16cc#\L	.	16ee\L	.	.	.	.	.	.	.	.	.	.	.	.	.	.	.	.	.	.	.	.	.	.	.	.	.
.	.	.	16b\JJ	.	16dd\JJ	.	.	.	.	.	.	.	.	.	.	.	.	.	.	.	.	.	.	.	.	.	.	.	.	.
!LO:TX:t=P:problem=mixed beam	!	!	!	!	!	!	!LO:SIC:s=(4e\	!	!	!	!	!	!	!	!	!	!	!	!	!	!	!	!	!	!	!	!	!	!	!
8E\L	4	.	4a/	.	4cc#\	.	4e\	me-	me-	.	.	2e\	me-	me-	.	.	(4a\	me-	me-	.	.	(4cc#\	me-	me-	.	.	2e\	.	4e\	.
8E\	.	.	.	.	.	.	.	.	.	.	.	.	.	.	.	.	.	.	.	.	.	.	.	.	.	.	.	.	.	.
!	!	!	!	!	!	!	!LO:SIC:s=4E\)	!	!	!	!	!	!	!	!	!	!	!	!	!	!	!	!	!	!	!	!	!	!	!
8EE/	#	.	4g#X/	.	4b\	.	4E\	.	.	.	.	.	.	.	.	.	4g#X\)	.	.	.	.	4b\)	.	.	.	.	.	.	4e\	.
8EE/J	.	.	.	.	.	.	.	.	.	.	.	.	.	.	.	.	.	.	.	.	.	.	.	.	.	.	.	.	.	.
!	!	!	!	!	!	!	!	!	!	!	!	!	!	!	!	!	!LO:LB:g=original	!	!	!	!	!	!	!	!	!	!	!	!	!
=23	=23	=23	=23	=23	=23	=23	=23	=23	=23	=23	=23	=23	=23	=23	=23	=23	=23	=23	=23	=23	=23	=23	=23	=23	=23	=23	=23	=23	=23	=23
!	!	!LO:DY:a:t=p.	!	!	!LO:TX:a:i:t=Solo:mod=	!	!	!	!	!	!	!	!	!	!	!	!	!	!	!	!	!	!	!	!	!	!	!	!	!
4AA/	.	p	4a/	.	8cc#\L	.	2A\	-o	-o.	.	.	2e\	-o	-o.	.	.	4a\	-o	-o.	.	.	4cc#\	-o	-o.	.	.	4A/	.	4e\	.
.	.	.	.	.	8ee\J	.	.	.	.	.	.	.	.	.	.	.	.	.	.	.	.	.	.	.	.	.	.	.	.	.
4A\	.	.	4e/	.	4cc#\	.	.	.	.	.	.	.	.	.	.	.	4r	.	.	.	.	4r	.	.	.	.	4A/	.	4e\	.
!	!	!	!LO:MO:mod=!LO&colon;TX&colon;a&colon;t=Solo	!	!	!	!	!	!	!	!	!	!	!	!	!	!	!	!	!	!	!	!	!	!	!	!	!	!	!
!	!	!	!LO:TX:a:i:t=Solo	!	!LO:TX:a:t= :mod=Solo	!	!	!	!	!	!	!	!	!	!	!	!	!	!	!	!	!	!	!	!	!	!	!	!	!
4AA/	.	.	8r	.	8r	.	2r	.	.	.	.	2r	.	.	.	.	2r	.	.	.	.	2r	.	.	.	.	2r	.	2r	.
.	.	.	8e|/L	.	8ee|\L	.	.	.	.	.	.	.	.	.	.	.	.	.	.	.	.	.	.	.	.	.	.	.	.	.
4r	.	.	8e|/	.	8ee|\	.	.	.	.	.	.	.	.	.	.	.	.	.	.	.	.	.	.	.	.	.	.	.	.	.
.	.	.	8e|/J	.	8ee|\J	.	.	.	.	.	.	.	.	.	.	.	.	.	.	.	.	.	.	.	.	.	.	.	.	.
=24	=24	=24	=24	=24	=24	=24	=24	=24	=24	=24	=24	=24	=24	=24	=24	=24	=24	=24	=24	=24	=24	=24	=24	=24	=24	=24	=24	=24	=24	=24
!	!	!	!LO:SIC:s=(8e/L	!	!	!	!	!	!	!	!	!	!	!	!	!	!	!	!	!	!	!	!	!	!	!	!	!	!	!
4r	.	.	8e/L	.	(8ee\L	.	00r	.	.	.	.	00r	.	.	.	.	00r	.	.	.	.	0r	.	.	.	.	00r	.	00r	.
!	!	!	!LO:SIC:s=8d/J)	!	!	!	!	!	!	!	!	!	!	!	!	!	!	!	!	!	!	!	!	!	!	!	!	!	!	!
.	.	.	8d/J	.	8dd\J)	.	.	.	.	.	.	.	.	.	.	.	.	.	.	.	.	.	.	.	.	.	.	.	.	.
!	!	!	!LO:SIC:s=4B|/	!	!	!	!	!	!	!	!	!	!	!	!	!	!	!	!	!	!	!	!	!	!	!	!	!	!	!
4G#X\	6_ 5_	.	4B/	.	4b|\	.	.	.	.	.	.	.	.	.	.	.	.	.	.	.	.	.	.	.	.	.	.	.	.	.
4G#\	x x	.	8r	.	8r	.	.	.	.	.	.	.	.	.	.	.	.	.	.	.	.	.	.	.	.	.	.	.	.	.
.	.	.	8e|/L	.	8ee|\L	.	.	.	.	.	.	.	.	.	.	.	.	.	.	.	.	.	.	.	.	.	.	.	.	.
4G#\	x x	.	8e|/	.	8ee|\	.	.	.	.	.	.	.	.	.	.	.	.	.	.	.	.	.	.	.	.	.	.	.	.	.
.	.	.	8e|/J	.	8ee|\J	.	.	.	.	.	.	.	.	.	.	.	.	.	.	.	.	.	.	.	.	.	.	.	.	.
!	!	!	!LO:LB:g=original	!	!	!	!	!	!	!	!	!	!	!	!	!	!	!	!	!	!	!	!	!	!	!	!	!	!	!
=25	=25	=25	=25	=25	=25	=25	=25	=25	=25	=25	=25	=25	=25	=25	=25	=25	=25	=25	=25	=25	=25	=25	=25	=25	=25	=25	=25	=25	=25	=25
4r	.	.	(8e/L	.	(8ee\L	.	.	.	.	.	.	.	.	.	.	.	.	.	.	.	.	.	.	.	.	.	.	.	.	.
.	.	.	8d/J)	.	8dd\J)	.	.	.	.	.	.	.	.	.	.	.	.	.	.	.	.	.	.	.	.	.	.	.	.	.
4A\	.	.	4c#|/	.	4cc#|\	.	.	.	.	.	.	.	.	.	.	.	.	.	.	.	.	.	.	.	.	.	.	.	.	.
4A\	.	.	8r	.	8r	.	.	.	.	.	.	.	.	.	.	.	.	.	.	.	.	.	.	.	.	.	.	.	.	.
.	.	.	8e|/L	.	8ee|\L	.	.	.	.	.	.	.	.	.	.	.	.	.	.	.	.	.	.	.	.	.	.	.	.	.
4A\	.	.	8e|/	.	8ee|\	.	.	.	.	.	.	.	.	.	.	.	.	.	.	.	.	.	.	.	.	.	.	.	.	.
.	.	.	8e|/J	.	8ee|\J	.	.	.	.	.	.	.	.	.	.	.	.	.	.	.	.	.	.	.	.	.	.	.	.	.
=26	=26	=26	=26	=26	=26	=26	=26	=26	=26	=26	=26	=26	=26	=26	=26	=26	=26	=26	=26	=26	=26	=26	=26	=26	=26	=26	=26	=26	=26	=26
4r	.	.	(8e#X/L	.	(8ee#X\L	.	.	.	.	.	.	.	.	.	.	.	.	.	.	.	.	1r	.	.	.	.	.	.	.	.
.	.	.	8f#/J)	.	8ff#\)	.	.	.	.	.	.	.	.	.	.	.	.	.	.	.	.	.	.	.	.	.	.	.	.	.
!	!	!	!LO:SIC:s=(8dd\L	!	!	!	!	!	!	!	!	!	!	!	!	!	!	!	!	!	!	!	!	!	!	!	!	!	!	!
4D\	6	.	8dd\L	.	(8ff#\	.	.	.	.	.	.	.	.	.	.	.	.	.	.	.	.	.	.	.	.	.	.	.	.	.
!	!	!	!LO:SIC:s=8b\J)	!	!	!	!	!	!	!	!	!	!	!	!	!	!	!	!	!	!	!	!	!	!	!	!	!	!	!
.	.	.	8b\J	.	8dd\J)	.	.	.	.	.	.	.	.	.	.	.	.	.	.	.	.	.	.	.	.	.	.	.	.	.
4E\	4	.	8b/L	.	8dd\L	.	.	.	.	.	.	.	.	.	.	.	.	.	.	.	.	.	.	.	.	.	.	.	.	.
.	.	.	8a/	.	8cc#\	.	.	.	.	.	.	.	.	.	.	.	.	.	.	.	.	.	.	.	.	.	.	.	.	.
4EE/	#	.	8a/	.	8cc#\	.	.	.	.	.	.	.	.	.	.	.	.	.	.	.	.	.	.	.	.	.	.	.	.	.
.	.	.	8g#X/J	.	8b\J	.	.	.	.	.	.	.	.	.	.	.	.	.	.	.	.	.	.	.	.	.	.	.	.	.
!	!	!	!	!	!	!	!	!	!	!	!	!	!	!	!	!	!	!	!	!	!	!LO:LB:g=original	!	!	!	!	!	!	!	!
=27	=27	=27	=27	=27	=27	=27	=27	=27	=27	=27	=27	=27	=27	=27	=27	=27	=27	=27	=27	=27	=27	=27	=27	=27	=27	=27	=27	=27	=27	=27
!	!	!	!	!	!	!	!	!	!	!	!	!	!	!	!	!	!	!	!	!	!	!LO:MO:mod=!LO&colon;TX&colon;a&colon;t=Solo	!	!	!	!	!	!	!	!
!	!	!	!	!LO:DY:a:t=p.	!	!LO:DY:a:t=p.	!	!	!	!	!	!	!	!	!	!	!	!	!	!	!	!LO:TX:a:i:t=Solo.	!	!	!	!	!	!	!	!
4AA/	.	.	8c#|/L	p	2cc#\	p	.	.	.	.	.	.	.	.	.	.	.	.	.	.	.	2cc#\	Qui-	Qui-	.	.	.	.	.	.
.	.	.	8e|/	.	.	.	.	.	.	.	.	.	.	.	.	.	.	.	.	.	.	.	.	.	.	.	.	.	.	.
!	!	!LO:DY:a:t=p.	!	!	!	!	!	!	!	!	!	!	!	!	!	!	!	!	!	!	!	!	!	!	!	!	!	!	!	!
!	!	!LO:MO:mod=.	!LO:SIC:v:s=8a|/	!	!	!	!	!	!	!	!	!	!	!	!	!	!	!	!	!	!	!	!	!	!	!	!	!	!	!
4r	.	p	8g|/	.	.	.	.	.	.	.	.	.	.	.	.	.	.	.	.	.	.	.	.	.	.	.	.	.	.	.
.	.	.	8e|/J	.	.	.	.	.	.	.	.	.	.	.	.	.	.	.	.	.	.	.	.	.	.	.	.	.	.	.
!	!	!LO:MO:null:mod=p	!	!	!	!	!	!	!	!	!	!	!	!	!	!	!	!	!	!	!	!	!	!	!	!	!	!	!	!
4A\	.	.	8c#|/L	.	8cc#\L	.	.	.	.	.	.	.	.	.	.	.	.	.	.	.	.	8cc#\L	-a	-a	.	.	.	.	.	.
.	.	.	8e|/	.	8b\	.	.	.	.	.	.	.	.	.	.	.	.	.	.	.	.	8b\J	.	.	.	.	.	.	.	.
4r	.	.	8a|/	.	8cc#\	.	.	.	.	.	.	.	.	.	.	.	.	.	.	.	.	8cc#\L	res-	res-	.	.	.	.	.	.
.	.	.	8e|/J	.	8dd\J	.	.	.	.	.	.	.	.	.	.	.	.	.	.	.	.	8dd\J	.	.	.	.	.	.	.	.
!LO:LB:g=original	!	!	!	!	!LO:LB:g=original	!	!	!	!	!	!	!	!	!	!	!	!	!	!	!	!	!	!	!	!	!	!	!	!	!
=28	=28	=28	=28	=28	=28	=28	=28	=28	=28	=28	=28	=28	=28	=28	=28	=28	=28	=28	=28	=28	=28	=28	=28	=28	=28	=28	=28	=28	=28	=28
4AA/	.	.	8c#|/L	.	2.ee\	.	00r	.	.	.	.	00r	.	.	.	.	00r	.	.	.	.	2.ee\	-pe-	-pe-	.	.	00r	.	00r	.
.	.	.	8e|/	.	.	.	.	.	.	.	.	.	.	.	.	.	.	.	.	.	.	.	.	.	.	.	.	.	.	.
4r	.	.	8a|/	.	.	.	.	.	.	.	.	.	.	.	.	.	.	.	.	.	.	.	.	.	.	.	.	.	.	.
.	.	.	8e|/J	.	.	.	.	.	.	.	.	.	.	.	.	.	.	.	.	.	.	.	.	.	.	.	.	.	.	.
4A\	.	.	8c#|/L	.	.	.	.	.	.	.	.	.	.	.	.	.	.	.	.	.	.	.	.	.	.	.	.	.	.	.
.	.	.	8e|/	.	.	.	.	.	.	.	.	.	.	.	.	.	.	.	.	.	.	.	.	.	.	.	.	.	.	.
4r	.	.	8a|/	.	4cc#\	.	.	.	.	.	.	.	.	.	.	.	.	.	.	.	.	4cc#\	-xit	-xit	.	.	.	.	.	.
.	.	.	8e|/J	.	.	.	.	.	.	.	.	.	.	.	.	.	.	.	.	.	.	.	.	.	.	.	.	.	.	.
=29	=29	=29	=29	=29	=29	=29	=29	=29	=29	=29	=29	=29	=29	=29	=29	=29	=29	=29	=29	=29	=29	=29	=29	=29	=29	=29	=29	=29	=29	=29
4E\	#_	.	8B|/L	.	2b\	.	.	.	.	.	.	.	.	.	.	.	.	.	.	.	.	2b\	hu-	hu-	.	.	.	.	.	.
.	.	.	8e|/	.	.	.	.	.	.	.	.	.	.	.	.	.	.	.	.	.	.	.	.	.	.	.	.	.	.	.
4r	.	.	8g#X|/	.	.	.	.	.	.	.	.	.	.	.	.	.	.	.	.	.	.	.	.	.	.	.	.	.	.	.
.	.	.	8e|/J	.	.	.	.	.	.	.	.	.	.	.	.	.	.	.	.	.	.	.	.	.	.	.	.	.	.	.
4E\	x	.	8B|/L	.	8b\L	.	.	.	.	.	.	.	.	.	.	.	.	.	.	.	.	8b\L	-mi-	-mi-	.	.	.	.	.	.
.	.	.	8e|/	.	8cc#\	.	.	.	.	.	.	.	.	.	.	.	.	.	.	.	.	8cc#\J	.	.	.	.	.	.	.	.
4r	.	.	8g#|/	.	8dd\	.	.	.	.	.	.	.	.	.	.	.	.	.	.	.	.	8dd\L	-li-	-li-	.	.	.	.	.	.
.	.	.	8e|/J	.	8ee\J	.	.	.	.	.	.	.	.	.	.	.	.	.	.	.	.	8ee\J	.	.	.	.	.	.	.	.
!	!	!	!LO:LB:g=original	!	!	!	!	!	!	!	!	!	!	!	!	!	!	!	!	!	!	!	!	!	!	!	!	!	!	!
=30	=30	=30	=30	=30	=30	=30	=30	=30	=30	=30	=30	=30	=30	=30	=30	=30	=30	=30	=30	=30	=30	=30	=30	=30	=30	=30	=30	=30	=30	=30
4A\	4	.	8B|/L	.	4.dd\	.	.	.	.	.	.	.	.	.	.	.	.	.	.	.	.	2dd\	-ta-	-ta-	.	.	.	.	.	.
.	.	.	8e|/	.	.	.	.	.	.	.	.	.	.	.	.	.	.	.	.	.	.	.	.	.	.	.	.	.	.	.
4r	.	.	8g#X|/	.	.	.	.	.	.	.	.	.	.	.	.	.	.	.	.	.	.	.	.	.	.	.	.	.	.	.
.	.	.	8e|/J	.	16cc#\LL	.	.	.	.	.	.	.	.	.	.	.	.	.	.	.	.	.	.	.	.	.	.	.	.	.
.	.	.	.	.	16dd\JJ	.	.	.	.	.	.	.	.	.	.	.	.	.	.	.	.	.	.	.	.	.	.	.	.	.
4AA/	3	.	8c#|/L	.	4cc#\	.	.	.	.	.	.	.	.	.	.	.	.	.	.	.	.	4cc#\	-tem	-tem,	.	.	.	.	.	.
.	.	.	8e|/	.	.	.	.	.	.	.	.	.	.	.	.	.	.	.	.	.	.	.	.	.	.	.	.	.	.	.
4r	.	.	8a|/	.	4r	.	.	.	.	.	.	.	.	.	.	.	.	.	.	.	.	4r	.	.	.	.	.	.	.	.
.	.	.	8e|/J	.	.	.	.	.	.	.	.	.	.	.	.	.	.	.	.	.	.	.	.	.	.	.	.	.	.	.
=31	=31	=31	=31	=31	=31	=31	=31	=31	=31	=31	=31	=31	=31	=31	=31	=31	=31	=31	=31	=31	=31	=31	=31	=31	=31	=31	=31	=31	=31	=31
4AA/	.	.	8c#|/L	.	2cc#\	.	.	.	.	.	.	.	.	.	.	.	.	.	.	.	.	2cc#\	hu-	hu-	.	.	.	.	.	.
.	.	.	8e|/	.	.	.	.	.	.	.	.	.	.	.	.	.	.	.	.	.	.	.	.	.	.	.	.	.	.	.
4r	.	.	8a|/	.	.	.	.	.	.	.	.	.	.	.	.	.	.	.	.	.	.	.	.	.	.	.	.	.	.	.
.	.	.	8e|/J	.	.	.	.	.	.	.	.	.	.	.	.	.	.	.	.	.	.	.	.	.	.	.	.	.	.	.
4A\	.	.	8c#|/L	.	8cc#\L	.	.	.	.	.	.	.	.	.	.	.	.	.	.	.	.	8cc#\L	-mi-	-mi-	.	.	.	.	.	.
.	.	.	8e|/	.	8b\	.	.	.	.	.	.	.	.	.	.	.	.	.	.	.	.	8b\J	.	.	.	.	.	.	.	.
4r	.	.	8a|/	.	8cc#\	.	.	.	.	.	.	.	.	.	.	.	.	.	.	.	.	8cc#\L	-li-	-li-	.	.	.	.	.	.
.	.	.	8e|/J	.	8dd\J	.	.	.	.	.	.	.	.	.	.	.	.	.	.	.	.	8dd\J	.	.	.	.	.	.	.	.
=32	=32	=32	=32	=32	=32	=32	=32	=32	=32	=32	=32	=32	=32	=32	=32	=32	=32	=32	=32	=32	=32	=32	=32	=32	=32	=32	=32	=32	=32	=32
4AA/	.	.	8c#|/L	.	2.ee\	.	00r	.	.	.	.	00r	.	.	.	.	00r	.	.	.	.	2.ee\	-ta-	-ta-	.	.	00r	.	00r	.
.	.	.	8e|/	.	.	.	.	.	.	.	.	.	.	.	.	.	.	.	.	.	.	.	.	.	.	.	.	.	.	.
4r	.	.	8a|/	.	.	.	.	.	.	.	.	.	.	.	.	.	.	.	.	.	.	.	.	.	.	.	.	.	.	.
.	.	.	8e|/J	.	.	.	.	.	.	.	.	.	.	.	.	.	.	.	.	.	.	.	.	.	.	.	.	.	.	.
4A\	.	.	8c#|/L	.	.	.	.	.	.	.	.	.	.	.	.	.	.	.	.	.	.	.	.	.	.	.	.	.	.	.
.	.	.	8e|/	.	.	.	.	.	.	.	.	.	.	.	.	.	.	.	.	.	.	.	.	.	.	.	.	.	.	.
4r	.	.	8a|/	.	4cc#\	.	.	.	.	.	.	.	.	.	.	.	.	.	.	.	.	4cc#\	-tem	-tem	.	.	.	.	.	.
.	.	.	8e|/J	.	.	.	.	.	.	.	.	.	.	.	.	.	.	.	.	.	.	.	.	.	.	.	.	.	.	.
=33	=33	=33	=33	=33	=33	=33	=33	=33	=33	=33	=33	=33	=33	=33	=33	=33	=33	=33	=33	=33	=33	=33	=33	=33	=33	=33	=33	=33	=33	=33
4E\	7_ #_	.	8B|/L	.	2b\	.	.	.	.	.	.	.	.	.	.	.	.	.	.	.	.	2b\	an-	an-	.	.	.	.	.	.
.	.	.	8e|/	.	.	.	.	.	.	.	.	.	.	.	.	.	.	.	.	.	.	.	.	.	.	.	.	.	.	.
4r	.	.	8g#X|/	.	.	.	.	.	.	.	.	.	.	.	.	.	.	.	.	.	.	.	.	.	.	.	.	.	.	.
.	.	.	8e|/J	.	.	.	.	.	.	.	.	.	.	.	.	.	.	.	.	.	.	.	.	.	.	.	.	.	.	.
4E\	x x	.	8B|/L	.	8b\L	.	.	.	.	.	.	.	.	.	.	.	.	.	.	.	.	8b\L	-cil-	-cil-	.	.	.	.	.	.
.	.	.	8e|/	.	8cc#\	.	.	.	.	.	.	.	.	.	.	.	.	.	.	.	.	8cc#\J	.	.	.	.	.	.	.	.
!	!	!	!	!	!	!	!	!	!	!	!	!	!	!	!	!	!	!	!	!	!	!LO:LB:g=original	!	!	!	!	!	!	!	!
4r	.	.	8g#|/	.	8dd\	.	.	.	.	.	.	.	.	.	.	.	.	.	.	.	.	8dd\L	-le	-lae	.	.	.	.	.	.
.	.	.	8e|/J	.	8ee\J	.	.	.	.	.	.	.	.	.	.	.	.	.	.	.	.	8ee\J	.	.	.	.	.	.	.	.
=34	=34	=34	=34	=34	=34	=34	=34	=34	=34	=34	=34	=34	=34	=34	=34	=34	=34	=34	=34	=34	=34	=34	=34	=34	=34	=34	=34	=34	=34	=34
!	!	!	!	!	!	!	!	!	!	!	!	!	!	!	!	!	!	!	!	!	!	!LO:N:vis=2.	!	!	!	!	!	!	!	!
4r	.	.	8B|/L	.	4.dd\	.	.	.	.	.	.	.	.	.	.	.	.	.	.	.	.	2dd\	Su-	su-	.	.	.	.	.	.
.	.	.	8e|/	.	.	.	.	.	.	.	.	.	.	.	.	.	.	.	.	.	.	.	.	.	.	.	.	.	.	.
4G#X\	6 5	.	8g#X|/	.	.	.	.	.	.	.	.	.	.	.	.	.	.	.	.	.	.	.	.	.	.	.	.	.	.	.
.	.	.	8e|/J	.	16cc#\LL	.	.	.	.	.	.	.	.	.	.	.	.	.	.	.	.	.	.	.	.	.	.	.	.	.
.	.	.	.	.	16dd\JJ	.	.	.	.	.	.	.	.	.	.	.	.	.	.	.	.	.	.	.	.	.	.	.	.	.
4A\	.	.	8c#|/L	.	4cc#\	.	.	.	.	.	.	.	.	.	.	.	.	.	.	.	.	4cc#\	-e	-ae:	.	.	.	.	.	.
.	.	.	8e|/	.	.	.	.	.	.	.	.	.	.	.	.	.	.	.	.	.	.	.	.	.	.	.	.	.	.	.
4AA/	.	.	8a|/	.	4r	.	.	.	.	.	.	.	.	.	.	.	.	.	.	.	.	4r	.	.	.	.	.	.	.	.
.	.	.	8e|/J	.	.	.	.	.	.	.	.	.	.	.	.	.	.	.	.	.	.	.	.	.	.	.	.	.	.	.
!	!	!	!LO:LB:g=original	!	!	!	!	!	!	!	!	!	!	!	!	!	!	!	!	!	!	!	!	!	!	!	!	!	!	!
=35	=35	=35	=35	=35	=35	=35	=35	=35	=35	=35	=35	=35	=35	=35	=35	=35	=35	=35	=35	=35	=35	=35	=35	=35	=35	=35	=35	=35	=35	=35
4G#X\	6_ 5_	.	8B|/L	.	2.b\	.	.	.	.	.	.	.	.	.	.	.	.	.	.	.	.	2.b\	Ec-	ec-	.	.	.	.	.	.
.	.	.	8e|/	.	.	.	.	.	.	.	.	.	.	.	.	.	.	.	.	.	.	.	.	.	.	.	.	.	.	.
4r	.	.	8g#X|/	.	.	.	.	.	.	.	.	.	.	.	.	.	.	.	.	.	.	.	.	.	.	.	.	.	.	.
.	.	.	8e|/J	.	.	.	.	.	.	.	.	.	.	.	.	.	.	.	.	.	.	.	.	.	.	.	.	.	.	.
4G#\	x x	.	8B|/L	.	.	.	.	.	.	.	.	.	.	.	.	.	.	.	.	.	.	.	.	.	.	.	.	.	.	.
.	.	.	8e|/	.	.	.	.	.	.	.	.	.	.	.	.	.	.	.	.	.	.	.	.	.	.	.	.	.	.	.
4r	.	.	8g#|/	.	8ee\L	.	.	.	.	.	.	.	.	.	.	.	.	.	.	.	.	8ee\L	-ce	-ce	.	.	.	.	.	.
.	.	.	8e|/J	.	8dd\J	.	.	.	.	.	.	.	.	.	.	.	.	.	.	.	.	8dd\J	.	.	.	.	.	.	.	.
!	!	!	!	!	!LO:LB:g=original	!	!	!	!	!	!	!	!	!	!	!	!	!	!	!	!	!	!	!	!	!	!	!	!	!
=36	=36	=36	=36	=36	=36	=36	=36	=36	=36	=36	=36	=36	=36	=36	=36	=36	=36	=36	=36	=36	=36	=36	=36	=36	=36	=36	=36	=36	=36	=36
4A\	.	.	8c#|/L	.	8dd\L	.	00r	.	.	.	.	00r	.	.	.	.	00r	.	.	.	.	8dd\L	e-	e-	.	.	00r	.	00r	.
.	.	.	8e|/	.	8cc#\	.	.	.	.	.	.	.	.	.	.	.	.	.	.	.	.	8cc#\	.	.	.	.	.	.	.	.
4r	.	.	8a|/	.	8b\	.	.	.	.	.	.	.	.	.	.	.	.	.	.	.	.	8b\	.	.	.	.	.	.	.	.
.	.	.	8e|/J	.	8cc#\J	.	.	.	.	.	.	.	.	.	.	.	.	.	.	.	.	8cc#\J	.	.	.	.	.	.	.	.
4A\	.	.	8c#|/L	.	4a/	.	.	.	.	.	.	.	.	.	.	.	.	.	.	.	.	4a\	-nim	-nim	.	.	.	.	.	.
.	.	.	8e|/	.	.	.	.	.	.	.	.	.	.	.	.	.	.	.	.	.	.	.	.	.	.	.	.	.	.	.
4r	.	.	8a|/	.	4a/	.	.	.	.	.	.	.	.	.	.	.	.	.	.	.	.	4a\	ex	ex	.	.	.	.	.	.
.	.	.	8e|/J	.	.	.	.	.	.	.	.	.	.	.	.	.	.	.	.	.	.	.	.	.	.	.	.	.	.	.
=37	=37	=37	=37	=37	=37	=37	=37	=37	=37	=37	=37	=37	=37	=37	=37	=37	=37	=37	=37	=37	=37	=37	=37	=37	=37	=37	=37	=37	=37	=37
4G#X\	6_ 5_	.	8B|/L	.	2.b\	.	.	.	.	.	.	.	.	.	.	.	.	.	.	.	.	2.b\	hoc	hoc	.	.	.	.	.	.
.	.	.	8e|/	.	.	.	.	.	.	.	.	.	.	.	.	.	.	.	.	.	.	.	.	.	.	.	.	.	.	.
4r	.	.	8g#X|/	.	.	.	.	.	.	.	.	.	.	.	.	.	.	.	.	.	.	.	.	.	.	.	.	.	.	.
.	.	.	8e|/J	.	.	.	.	.	.	.	.	.	.	.	.	.	.	.	.	.	.	.	.	.	.	.	.	.	.	.
4G#\	x x	.	8B|/L	.	.	.	.	.	.	.	.	.	.	.	.	.	.	.	.	.	.	.	.	.	.	.	.	.	.	.
.	.	.	8e|/	.	.	.	.	.	.	.	.	.	.	.	.	.	.	.	.	.	.	.	.	.	.	.	.	.	.	.
4r	.	.	8g#|/	.	8ee\L	.	.	.	.	.	.	.	.	.	.	.	.	.	.	.	.	8ee\L	be-	be-	.	.	.	.	.	.
.	.	.	8e|/J	.	8dd\J	.	.	.	.	.	.	.	.	.	.	.	.	.	.	.	.	8dd\J	.	.	.	.	.	.	.	.
!LO:LB:g=original	!	!	!	!	!	!	!	!	!	!	!	!	!	!	!	!	!	!	!	!	!	!	!	!	!	!	!	!	!	!
=38	=38	=38	=38	=38	=38	=38	=38	=38	=38	=38	=38	=38	=38	=38	=38	=38	=38	=38	=38	=38	=38	=38	=38	=38	=38	=38	=38	=38	=38	=38
4A\	.	.	8c#|/L	.	8dd\L	.	.	.	.	.	.	.	.	.	.	.	.	.	.	.	.	8dd\L	-a-	-a-	.	.	.	.	.	.
.	.	.	8e|/	.	8cc#\	.	.	.	.	.	.	.	.	.	.	.	.	.	.	.	.	8cc#\	.	.	.	.	.	.	.	.
4r	.	.	8a|/	.	8b\	.	.	.	.	.	.	.	.	.	.	.	.	.	.	.	.	8b\	.	.	.	.	.	.	.	.
.	.	.	8e|/J	.	8cc#\J	.	.	.	.	.	.	.	.	.	.	.	.	.	.	.	.	8cc#\J	.	.	.	.	.	.	.	.
4A\	.	.	8c#|/L	.	4a/	.	.	.	.	.	.	.	.	.	.	.	.	.	.	.	.	4a\	-tum	-tam,	.	.	.	.	.	.
.	.	.	8e|/	.	.	.	.	.	.	.	.	.	.	.	.	.	.	.	.	.	.	.	.	.	.	.	.	.	.	.
4r	.	.	8a|/	.	4ee\	.	.	.	.	.	.	.	.	.	.	.	.	.	.	.	.	4ee\	ec-	ec-	.	.	.	.	.	.
.	.	.	8e|/J	.	.	.	.	.	.	.	.	.	.	.	.	.	.	.	.	.	.	.	.	.	.	.	.	.	.	.
=39	=39	=39	=39	=39	=39	=39	=39	=39	=39	=39	=39	=39	=39	=39	=39	=39	=39	=39	=39	=39	=39	=39	=39	=39	=39	=39	=39	=39	=39	=39
4A\	6_ 4_	.	8d|/L	.	2ff#\	.	.	.	.	.	.	.	.	.	.	.	.	.	.	.	.	2ff#\	-ce	-ce	.	.	.	.	.	.
.	.	.	8f#|/	.	.	.	.	.	.	.	.	.	.	.	.	.	.	.	.	.	.	.	.	.	.	.	.	.	.	.
4r	.	.	8a|/	.	.	.	.	.	.	.	.	.	.	.	.	.	.	.	.	.	.	.	.	.	.	.	.	.	.	.
.	.	.	8f#|/J	.	.	.	.	.	.	.	.	.	.	.	.	.	.	.	.	.	.	.	.	.	.	.	.	.	.	.
!	!	!	!	!	!	!	!	!	!	!	!	!	!	!	!	!	!	!	!	!	!	!LO:SIC:s=(4aa\	!	!	!	!	!	!	!	!
4A\	x x	.	8d|/L	.	4aa\	.	.	.	.	.	.	.	.	.	.	.	.	.	.	.	.	4aa\	e-	e-	.	.	.	.	.	.
.	.	.	8f#|/	.	.	.	.	.	.	.	.	.	.	.	.	.	.	.	.	.	.	.	.	.	.	.	.	.	.	.
!	!	!	!	!	!	!	!	!	!	!	!	!	!	!	!	!	!	!	!	!	!	!LO:SIC:v:s=8gg#\L	!	!	!	!	!	!	!	!
4r	.	.	8a|/	.	8gg#X\L	.	.	.	.	.	.	.	.	.	.	.	.	.	.	.	.	8gg\L	.	.	.	.	.	.	.	.
!	!	!	!	!	!	!	!	!	!	!	!	!	!	!	!	!	!	!	!	!	!	!LO:SIC:s=8ff#\J)	!	!	!	!	!	!	!	!
.	.	.	8f#|/J	.	8ff#\J	.	.	.	.	.	.	.	.	.	.	.	.	.	.	.	.	8ff#\J	.	.	.	.	.	.	.	.
!	!	!	!	!	!	!	!	!	!	!	!	!	!	!	!	!	!	!	!	!	!	!LO:LB:g=original	!	!	!	!	!	!	!	!
=40	=40	=40	=40	=40	=40	=40	=40	=40	=40	=40	=40	=40	=40	=40	=40	=40	=40	=40	=40	=40	=40	=40	=40	=40	=40	=40	=40	=40	=40	=40
4A\	3_	.	8c#|/L	.	2.ee\	.	0r	.	.	.	.	0r	.	.	.	.	0r	.	.	.	.	2.ee\	-nim	-nim	.	.	00r	.	00r	.
.	.	.	8e|/	.	.	.	.	.	.	.	.	.	.	.	.	.	.	.	.	.	.	.	.	.	.	.	.	.	.	.
4r	.	.	8a|/	.	.	.	.	.	.	.	.	.	.	.	.	.	.	.	.	.	.	.	.	.	.	.	.	.	.	.
.	.	.	8e|/J	.	.	.	.	.	.	.	.	.	.	.	.	.	.	.	.	.	.	.	.	.	.	.	.	.	.	.
!	!	!	!LO:LB:g=original	!	!	!	!	!	!	!	!	!	!	!	!	!	!	!	!	!	!	!	!	!	!	!	!	!	!	!
4AA/	x	.	8c#|/L	.	.	.	.	.	.	.	.	.	.	.	.	.	.	.	.	.	.	.	.	.	.	.	.	.	.	.
.	.	.	8e|/	.	.	.	.	.	.	.	.	.	.	.	.	.	.	.	.	.	.	.	.	.	.	.	.	.	.	.
4r	.	.	8a|/	.	4cc#\	.	.	.	.	.	.	.	.	.	.	.	.	.	.	.	.	4cc#\	ex	ex	.	.	.	.	.	.
.	.	.	8e|/J	.	.	.	.	.	.	.	.	.	.	.	.	.	.	.	.	.	.	.	.	.	.	.	.	.	.	.
=41	=41	=41	=41	=41	=41	=41	=41	=41	=41	=41	=41	=41	=41	=41	=41	=41	=41	=41	=41	=41	=41	=41	=41	=41	=41	=41	=41	=41	=41	=41
4D\	6_	.	8f#|/L	.	4dd\	.	.	.	.	.	.	.	.	.	.	.	.	.	.	.	.	4dd\	hoc	hoc	.	.	.	.	.	.
.	.	.	8b|/	.	.	.	.	.	.	.	.	.	.	.	.	.	.	.	.	.	.	.	.	.	.	.	.	.	.	.
4D\	x	.	8dd|/	.	8ff#\L	.	.	.	.	.	.	.	.	.	.	.	.	.	.	.	.	8ff#\L	be-	be-	.	.	.	.	.	.
.	.	.	8b|/J	.	8dd\J	.	.	.	.	.	.	.	.	.	.	.	.	.	.	.	.	8dd\J	.	.	.	.	.	.	.	.
4E\	4	.	4a/	.	4cc#\	.	.	.	.	.	.	.	.	.	.	.	.	.	.	.	.	(4cc#\	-a-	-a-	.	.	.	.	.	.
4EE/	#	.	4g#X/	.	4b\	.	.	.	.	.	.	.	.	.	.	.	.	.	.	.	.	4b\)	.	.	.	.	.	.	.	.
=42	=42	=42	=42	=42	=42	=42	=42	=42	=42	=42	=42	=42	=42	=42	=42	=42	=42	=42	=42	=42	=42	=42	=42	=42	=42	=42	=42	=42	=42	=42
!	!	!	!	!	!	!LO:DY:a:t=for.	!	!	!	!	!	!	!	!	!	!	!	!	!	!	!	!	!	!	!	!	!	!	!	!
!	!	!	!	!	!	!LO:MO:mod=.	!	!	!	!	!	!	!	!	!	!	!	!	!	!	!	!	!	!	!	!	!	!	!	!
4AA/	.	.	4a/	.	4cc#\	f	1r	.	.	.	.	1r	.	.	.	.	1r	.	.	.	.	4cc#\	-tum	-tam	.	.	.	.	.	.
4r	.	.	4a/	.	4aa\	.	.	.	.	.	.	.	.	.	.	.	.	.	.	.	.	4aa\	me	me	.	.	.	.	.	.
!LO:TX:a:i:t=tutti:mod=	!	!	!	!LO:DY:a:t=for	!	!LO:MO:null:mod=f	!	!	!	!	!	!	!	!	!	!	!	!	!	!	!	!	!	!	!	!	!	!	!	!
2r	.	.	8a/L	f	8aa\L	.	.	.	.	.	.	.	.	.	.	.	.	.	.	.	.	8aa\L	di-	di-	.	.	.	.	.	.
!	!	!	!	!	!LO:SIC:s=8gg\	!	!	!	!	!	!	!	!	!	!	!	!	!	!	!	!	!LO:SIC:s=8gg\J	!	!	!	!	!	!	!	!
.	.	.	8gn/	.	8ggn\	.	.	.	.	.	.	.	.	.	.	.	.	.	.	.	.	8ggn\J	.	.	.	.	.	.	.	.
.	.	.	8f#/	.	8ff#\	.	.	.	.	.	.	.	.	.	.	.	.	.	.	.	.	8ff#\L	-cent	-cent	.	.	.	.	.	.
.	.	.	8e/J	.	8ee\J	.	.	.	.	.	.	.	.	.	.	.	.	.	.	.	.	8ee\J	.	.	.	.	.	.	.	.
=43	=43	=43	=43	=43	=43	=43	=43	=43	=43	=43	=43	=43	=43	=43	=43	=43	=43	=43	=43	=43	=43	=43	=43	=43	=43	=43	=43	=43	=43	=43
!!LO:TX:a:t= :mod=Tutti
!	!	!	!	!	!	!	!	!	!	!	!	!	!	!	!	!	!	!	!	!	!	!LO:SIC:s=(2.dd#X\	!	!	!	!	!	!	!	!
4r	.	.	2.d#X/	.	2.dd#X\	.	4r	.	.	.	.	4r	.	.	.	.	4r	.	.	.	.	2.dd#X\	o-	o-	.	.	.	.	.	.
!	!	!	!	!	!	!	!LO:SIC:s=(4A\	!	!	!	!	!	!	!	!	!	!	!	!	!	!	!	!	!	!	!	!	!	!	!
4A\	#4r 2	.	.	.	.	.	4A\	om-	o-	.	.	2.f#\	o-	o-	.	.	2.b\	o-	o-	.	.	.	.	.	.	.	.	.	.	.
!LO:SIC:s=8G\L	!	!	!	!	!	!	!LO:SIC:s=8G\L	!	!	!	!	!	!	!	!	!	!	!	!	!	!	!	!	!	!	!	!	!	!	!
8Gn\L	.	.	.	.	.	.	8Gn\L	.	.	.	.	.	.	.	.	.	.	.	.	.	.	.	.	.	.	.	.	.	.	.
8F#\	.	.	.	.	.	.	8F#\	.	.	.	.	.	.	.	.	.	.	.	.	.	.	.	.	.	.	.	.	.	.	.
8E\	.	.	8e/L	.	8ee\L	.	8E\	.	.	.	.	.	.	.	.	.	.	.	.	.	.	8ee\L	.	.	.	.	.	.	.	.
!	!	!	!	!	!	!	!LO:SIC:s=8D#X\J)	!	!	!	!	!	!	!	!	!	!	!	!	!	!	!LO:SIC:s=8ff#\J)	!	!	!	!	!	!	!	!
8D#X\J	.	.	8f#/J	.	8ff#\J	.	8D#X\J	.	.	.	.	.	.	.	.	.	.	.	.	.	.	8ff#\J	.	.	.	.	.	.	.	.
!	!	!	!	!	!LO:LB:g=original	!	!LO:LB:g=original	!	!	!	!	!	!	!	!	!	!	!	!	!	!	!	!	!	!	!	!	!	!	!
=44	=44	=44	=44	=44	=44	=44	=44	=44	=44	=44	=44	=44	=44	=44	=44	=44	=44	=44	=44	=44	=44	=44	=44	=44	=44	=44	=44	=44	=44	=44
4E\	n	.	4g/	.	4gg\	.	4E\	-nes	-mnes	.	.	4g\	-mnes	-mnes	.	.	4b\	-mnes	-mnes	.	.	4gg\	-mnes	-mnes,	.	.	00r	.	00r	.
4r	.	.	4g/	.	4gg\	.	4r	.	.	.	.	4r	.	.	.	.	4r	.	.	.	.	4gg\	me	me	.	.	.	.	.	.
2r	.	.	8g/L	.	8gg\L	.	2r	.	.	.	.	2r	.	.	.	.	2r	.	.	.	.	8gg\L	di-	di-	.	.	.	.	.	.
.	.	.	8f#/	.	8ff#\	.	.	.	.	.	.	.	.	.	.	.	.	.	.	.	.	8ff#\J	.	.	.	.	.	.	.	.
.	.	.	8e/	.	8ee\	.	.	.	.	.	.	.	.	.	.	.	.	.	.	.	.	8ee\L	-cent	-cent	.	.	.	.	.	.
.	.	.	8dn/J	.	8ddn\J	.	.	.	.	.	.	.	.	.	.	.	.	.	.	.	.	8ddn\J	.	.	.	.	.	.	.	.
=45	=45	=45	=45	=45	=45	=45	=45	=45	=45	=45	=45	=45	=45	=45	=45	=45	=45	=45	=45	=45	=45	=45	=45	=45	=45	=45	=45	=45	=45	=45
!	!	!	!	!	!	!	!	!	!	!	!	!	!	!	!	!	!	!	!	!	!	!LO:SIC:s=(2.cc#\	!	!	!	!	!	!	!	!
4r	.	.	2.c#/	.	2.cc#\	.	4r	.	.	.	.	4r	.	.	.	.	4r	.	.	.	.	2.cc#\	om-	o-	.	.	.	.	.	.
*	*	*	*	*	*	*	*	*	*	*	*	*	*ij	*ij	*	*	*	*ij	*ij	*	*	*	*	*	*	*	*	*	*	*
!	!	!	!	!	!	!	!LO:SIC:s=(4G\	!	!	!	!	!	!	!	!	!	!	!	!	!	!	!	!	!	!	!	!	!	!	!
4G\	4_ 2_	.	.	.	.	.	4G\	om-	o-	.	.	2.e\	o-	o-	.	.	2.a\	o-	o-	.	.	.	.	.	.	.	.	.	.	.
8F#\L	x x	.	.	.	.	.	8F#\L	.	.	.	.	.	.	.	.	.	.	.	.	.	.	.	.	.	.	.	.	.	.	.
8E\	x x	.	.	.	.	.	8E\	.	.	.	.	.	.	.	.	.	.	.	.	.	.	.	.	.	.	.	.	.	.	.
8Dn\	x x	.	8d/L	.	8dd\L	.	8Dn\	.	.	.	.	.	.	.	.	.	.	.	.	.	.	8dd\L	.	.	.	.	.	.	.	.
!	!	!	!	!	!	!	!LO:SIC:s=8C#\J)	!	!	!	!	!	!	!	!	!	!	!	!	!	!	!LO:SIC:s=8ee\J)	!	!	!	!	!	!	!	!
8C#\J	x x	.	8e/J	.	8ee\J	.	8C#\J	.	.	.	.	.	.	.	.	.	.	.	.	.	.	8ee\J	.	.	.	.	.	.	.	.
!	!	!	!	!	!	!	!	!	!	!	!	!	!	!	!	!	!	!	!	!	!	!LO:LB:g=original	!	!	!	!	!	!	!	!
=46	=46	=46	=46	=46	=46	=46	=46	=46	=46	=46	=46	=46	=46	=46	=46	=46	=46	=46	=46	=46	=46	=46	=46	=46	=46	=46	=46	=46	=46	=46
4D\	.	.	4f#/	.	4ff#\	.	4D\	-nes	-mnes	.	.	4d\	-mnes	-mnes	.	.	4a\	-mnes	-mnes	.	.	4ff#\	-nes	-mnes	.	.	.	.	.	.
*	*	*	*	*	*	*	*	*	*	*	*	*	*Xij	*Xij	*	*	*	*Xij	*Xij	*	*	*	*	*	*	*	*	*	*	*
!	!	!	!	!	!	!	!	!	!	!	!	!	!	!	!	!	!LO:SIC:s=(4a\	!	!	!	!	!LO:SIC:s=(4ff#\	!	!	!	!	!	!	!	!
4r	.	.	4a/	.	4ff#\	.	4r	.	.	.	.	4r	.	.	.	.	4a\	.	ge-	.	.	4ff#\	ge-	ge-	.	.	.	.	.	.
4r	.	.	8b/L	.	8gg\L	.	4r	.	.	.	.	4r	.	.	.	.	8b\L	ge-	.	.	.	8gg\L	.	.	.	.	.	.	.	.
!	!	!	!	!	!	!	!	!	!	!	!	!	!	!	!	!	!LO:SIC:s=8a\J)	!	!	!	!	!LO:SIC:s=8ff#\J)	!	!	!	!	!	!	!	!
.	.	.	8a/	.	8ff#\	.	.	.	.	.	.	.	.	.	.	.	8a\J	.	.	.	.	8ff#\J	.	.	.	.	.	.	.	.
!	!	!	!	!	!	!	!LO:SIC:s=(4D\	!	!	!	!	!	!	!	!	!	!	!	!	!	!	!	!	!	!	!	!	!	!	!
4D\	.	.	8g/	.	8ee\	.	4D\	om-	o-	.	.	[4A\	om-	o-	.	.	8g\L	-ne-	-ne-	.	.	8ee\L	-ne-	-ne-	.	.	.	.	.	.
.	.	.	8f#/J	.	8dd\J	.	.	.	.	.	.	.	.	.	.	.	8f#\J	.	.	.	.	8dd\J	.	.	.	.	.	.	.	.
!LO:LB:g=original	!	!	!LO:LB:g=original	!	!	!	!	!	!	!	!	!LO:LB:g=original	!	!	!	!	!	!	!	!	!	!	!	!	!	!	!	!	!	!
=47	=47	=47	=47	=47	=47	=47	=47	=47	=47	=47	=47	=47	=47	=47	=47	=47	=47	=47	=47	=47	=47	=47	=47	=47	=47	=47	=47	=47	=47	=47
!	!	!	!	!	!	!	!LO:SIC:s=2.A\)	!	!	!	!	!LO:TX:t=P:problem=brak zakończenia ligatury po łamaniu systemu	!	!	!	!	!	!	!	!	!	!	!	!	!	!	!	!	!	!
2.A\	6:7_ 4:5_	.	4f#/	.	4dd\	.	2.A\	.	.	.	.	2.A\]	.	.	.	.	4f#\	-ra-	-ra-	.	.	4dd\	-ra-	-ra-	.	.	.	.	.	.
.	.	.	8e/L	.	8cc#\L	.	.	.	.	.	.	.	.	.	.	.	8e\L	.	.	.	.	8cc#\L	.	.	.	.	.	.	.	.
.	.	.	8f#/J	.	8dd\J	.	.	.	.	.	.	.	.	.	.	.	8f#\J	.	.	.	.	8dd\J	.	.	.	.	.	.	.	.
.	.	.	[2g/	.	[<2ee\	.	.	.	.	.	.	.	.	.	.	.	[<2g\	.	.	.	.	[<2ee\	.	.	.	.	.	.	.	.
4AA/	x x	.	.	.	.	.	4A\	-nes	-mnes	.	.	4A\	-mnes	-mnes	.	.	.	.	.	.	.	.	.	.	.	.	.	.	.	.
=48	=48	=48	=48	=48	=48	=48	=48	=48	=48	=48	=48	=48	=48	=48	=48	=48	=48	=48	=48	=48	=48	=48	=48	=48	=48	=48	=48	=48	=48	=48
!	!	!	!	!	!LO:MO:mod=!null:null	!	!	!	!	!	!	!	!	!	!	!	!	!	!	!	!	!	!	!	!	!	!	!	!	!
!	!	!	!	!	!LO:N:xstem:cue	!	!	!	!	!	!	!	!	!	!	!	!	!	!	!	!	!	!	!	!	!	!	!	!	!
2.D\	4:5_ 2:3_	.	4g/]	.	4ee\]	.	2.d\	ge-	ge-	.	.	2.A\	ge-	ge-	.	.	4g\]	.	.	.	.	4ee\]	.	.	.	.	0r	.	0r	.
.	.	.	8f#/L	.	8dd\L	.	.	.	.	.	.	.	.	.	.	.	8f#\L	.	.	.	.	8dd\L	.	.	.	.	.	.	.	.
.	.	.	8g/J	.	8ee\J	.	.	.	.	.	.	.	.	.	.	.	8g\J	.	.	.	.	8ee\J	.	.	.	.	.	.	.	.
.	.	.	[2a/	.	[<2ff#\	.	.	.	.	.	.	.	.	.	.	.	[<2a\	.	.	.	.	[<2ff#\	.	.	.	.	.	.	.	.
4DD/	x x	.	.	.	.	.	4D\	-ne-	-ne-	.	.	4A\	-ne-	-ne-	.	.	.	.	.	.	.	.	.	.	.	.	.	.	.	.
!	!	!	!	!	!	!	!	!	!	!	!	!	!	!	!	!	!LO:LB:g=original	!	!	!	!	!	!	!	!	!	!	!	!	!
=49	=49	=49	=49	=49	=49	=49	=49	=49	=49	=49	=49	=49	=49	=49	=49	=49	=49	=49	=49	=49	=49	=49	=49	=49	=49	=49	=49	=49	=49	=49
!	!	!	!LO:MO:mod=!null:null	!	!LO:MO:mod=!null:null	!	!	!	!	!	!	!	!	!	!	!	!	!	!	!	!	!	!	!	!	!	!	!	!	!
!	!	!	!LO:N:xstem:cue	!	!LO:N:xstem:cue	!	!	!	!	!	!	!	!	!	!	!	!LO:TX:t=P:problem=brak zakończenia ligatury po łamaniu systemu	!	!	!	!	!	!	!	!	!	!	!	!	!
2GG/	x x	.	4a/]	.	4ff#\]	.	2.G\	-ra-	-ra-	.	.	2B\	-ra-	-ra-	.	.	4a\]	.	.	.	.	4ff#\]	.	.	.	.	.	.	.	.
.	.	.	8b/L	.	8gg\L	.	.	.	.	.	.	.	.	.	.	.	8b\L	.	.	.	.	8gg\L	.	.	.	.	.	.	.	.
.	.	.	8a/J	.	8ff#\J	.	.	.	.	.	.	.	.	.	.	.	8a\J	.	.	.	.	8ff#\J	.	.	.	.	.	.	.	.
4G\	6	.	4g/	.	4ee\	.	.	.	.	.	.	2B\	-ti-	-ti-	.	.	4g\	.	.	.	.	4ee\	.	.	.	.	.	.	.	.
4G#X\	5	.	4f#/	.	4dd\	.	4G#X\	-ti-	-ti-	.	.	.	.	.	.	.	4f#\	ti-	ti-	.	.	4dd\	-ti-	-ti-	.	.	.	.	.	.
=50	=50	=50	=50	=50	=50	=50	=50	=50	=50	=50	=50	=50	=50	=50	=50	=50	=50	=50	=50	=50	=50	=50	=50	=50	=50	=50	=50	=50	=50	=50
4A\	4	.	4.f#/	.	4.dd\	.	2A\	-o-	-o-	.	.	2A\	-o-	-o-	.	.	2f#\	-o-	-o-	.	.	2dd\	-o-	-o-	.	.	1r	.	1r	.
4AA/	3	.	.	.	.	.	.	.	.	.	.	.	.	.	.	.	.	.	.	.	.	.	.	.	.	.	.	.	.	.
.	.	.	16g/LL	.	16ee\LL	.	.	.	.	.	.	.	.	.	.	.	.	.	.	.	.	.	.	.	.	.	.	.	.	.
.	.	.	16f#/JJ	.	16dd\JJ	.	.	.	.	.	.	.	.	.	.	.	.	.	.	.	.	.	.	.	.	.	.	.	.	.
8A\L	.	.	4e/	.	4cc#\	.	4AA/	-nes	-nes.	.	.	4A\	-nes	-nes.	.	.	4e\	-nes	-nes.	.	.	4cc#\	-nes	-nes.	.	.	.	.	.	.
8Gn\	.	.	.	.	.	.	.	.	.	.	.	.	.	.	.	.	.	.	.	.	.	.	.	.	.	.	.	.	.	.
8F#\	.	.	4r	.	4r	.	4r	.	.	.	.	4r	.	.	.	.	4r	.	.	.	.	4r	.	.	.	.	.	.	.	.
8E\J	.	.	.	.	.	.	.	.	.	.	.	.	.	.	.	.	.	.	.	.	.	.	.	.	.	.	.	.	.	.
!	!	!	!	!	!LO:LB:g=original	!	!	!	!	!	!	!	!	!	!	!	!	!	!	!	!	!	!	!	!	!	!	!	!LO:LB:g=original	!
=51	=51	=51	=51	=51	=51	=51	=51	=51	=51	=51	=51	=51	=51	=51	=51	=51	=51	=51	=51	=51	=51	=51	=51	=51	=51	=51	=51	=51	=51	=51
8D\L	.	.	8a/L	.	2ff# 2a 2d\	.	2D/	qui-	Qui-	.	.	2A\	qui-	Qui-	.	.	2f#\	qui-	Qui-	.	.	2dd\	Qui-	Qui-	.	.	2d\	.	2f#\	.
8D\	.	.	8a/	.	.	.	.	.	.	.	.	.	.	.	.	.	.	.	.	.	.	.	.	.	.	.	.	.	.	.
8D\	.	.	8a/	.	.	.	.	.	.	.	.	.	.	.	.	.	.	.	.	.	.	.	.	.	.	.	.	.	.	.
8D\J	.	.	8a/J	.	.	.	.	.	.	.	.	.	.	.	.	.	.	.	.	.	.	.	.	.	.	.	.	.	.	.
*tremolo	*	*	*tremolo	*	*	*	*	*	*	*	*	*	*	*	*	*	*	*	*	*	*	*	*	*	*	*	*	*	*	*
8C#/L	6 5	.	8a/L	.	4.gg\	.	2C#/	-a	-a	.	.	2A\	-a	-a	.	.	2g\	-a	-a	.	.	2ee\	-a	-a	.	.	2A/	.	2e\	.
8C#/	.	.	8a/	.	.	.	.	.	.	.	.	.	.	.	.	.	.	.	.	.	.	.	.	.	.	.	.	.	.	.
8C#/	.	.	8a/	.	.	.	.	.	.	.	.	.	.	.	.	.	.	.	.	.	.	.	.	.	.	.	.	.	.	.
8C#/J	.	.	8a/J	.	16ff#\LL	.	.	.	.	.	.	.	.	.	.	.	.	.	.	.	.	.	.	.	.	.	.	.	.	.
.	.	.	.	.	16gg\JJ	.	.	.	.	.	.	.	.	.	.	.	.	.	.	.	.	.	.	.	.	.	.	.	.	.
!	!	!	!	!	!	!	!	!	!	!	!	!	!	!	!	!	!	!	!	!	!	!	!	!	!	!	!LO:LB:g=original	!	!	!
=52	=52	=52	=52	=52	=52	=52	=52	=52	=52	=52	=52	=52	=52	=52	=52	=52	=52	=52	=52	=52	=52	=52	=52	=52	=52	=52	=52	=52	=52	=52
8D\L	.	.	8f#/L	.	4.aa\	.	2D\	fe-	fe-	.	.	2A\	fe-	fe-	.	.	2f#\	fe-	fe-	.	.	2dd\	fe-	fe-	.	.	2F#/	.	2d\	.
8D\	.	.	8f#/	.	.	.	.	.	.	.	.	.	.	.	.	.	.	.	.	.	.	.	.	.	.	.	.	.	.	.
8D\	.	.	8f#/	.	.	.	.	.	.	.	.	.	.	.	.	.	.	.	.	.	.	.	.	.	.	.	.	.	.	.
8D\J	.	.	8f#/J	.	8ff#\	.	.	.	.	.	.	.	.	.	.	.	.	.	.	.	.	.	.	.	.	.	.	.	.	.
8F#\L	6	.	8a/L	.	4dd\	.	2F#\	-cit	-cit	.	.	2A\	-cit	-cit	.	.	2f#\	-cit	-cit	.	.	2dd\	-cit	-cit	.	.	2d\	.	2f#\	.
8F#\	.	.	8a/	.	.	.	.	.	.	.	.	.	.	.	.	.	.	.	.	.	.	.	.	.	.	.	.	.	.	.
8F#\	.	.	8a/	.	4dd\	.	.	.	.	.	.	.	.	.	.	.	.	.	.	.	.	.	.	.	.	.	.	.	.	.
8F#\J	.	.	8a/J	.	.	.	.	.	.	.	.	.	.	.	.	.	.	.	.	.	.	.	.	.	.	.	.	.	.	.
!	!	!	!	!	!	!	!LO:LB:g=original	!	!	!	!	!	!	!	!	!	!	!	!	!	!	!LO:LB:g=original	!	!	!	!	!	!	!	!
=53	=53	=53	=53	=53	=53	=53	=53	=53	=53	=53	=53	=53	=53	=53	=53	=53	=53	=53	=53	=53	=53	=53	=53	=53	=53	=53	=53	=53	=53	=53
8G\L	6	.	8b\L	.	4.ee\	.	2G\	mi-	mi-	.	.	2B\	mi-	mi-	.	.	2g\	mi-	mi-	.	.	2ee\	mi-	mi-	.	.	2e\	.	2g\	.
8G\	.	.	8b\	.	.	.	.	.	.	.	.	.	.	.	.	.	.	.	.	.	.	.	.	.	.	.	.	.	.	.
8G\	.	.	8b\	.	.	.	.	.	.	.	.	.	.	.	.	.	.	.	.	.	.	.	.	.	.	.	.	.	.	.
8G\J	.	.	8b\J	.	16gg\LL	.	.	.	.	.	.	.	.	.	.	.	.	.	.	.	.	.	.	.	.	.	.	.	.	.
.	.	.	.	.	16ff#\JJ	.	.	.	.	.	.	.	.	.	.	.	.	.	.	.	.	.	.	.	.	.	.	.	.	.
8A\L	3	.	8cc#\L	.	4ee\	.	2A\	-hi	-hi	.	.	2A\	-hi	-hi	.	.	2e\	-hi	-hi	.	.	2cc#\	-hi	-hi	.	.	2A/	.	2e\	.
8A\	.	.	8cc#\	.	.	.	.	.	.	.	.	.	.	.	.	.	.	.	.	.	.	.	.	.	.	.	.	.	.	.
8A\	.	.	8cc#\	.	4ee\	.	.	.	.	.	.	.	.	.	.	.	.	.	.	.	.	.	.	.	.	.	.	.	.	.
8A\J	.	.	8cc#\J	.	.	.	.	.	.	.	.	.	.	.	.	.	.	.	.	.	.	.	.	.	.	.	.	.	.	.
!LO:MO:mod=*null:null	!	!	!LO:MO:mod=*null:null	!	!	!	!	!	!	!	!	!	!	!	!	!	!	!	!	!	!	!	!	!	!	!	!	!	!	!
*Xtremolo	*	*	*Xtremolo	*	*	*	*	*	*	*	*	*	*	*	*	*	*	*	*	*	*	*	*	*	*	*	*	*	*	*
=54	=54	=54	=54	=54	=54	=54	=54	=54	=54	=54	=54	=54	=54	=54	=54	=54	=54	=54	=54	=54	=54	=54	=54	=54	=54	=54	=54	=54	=54	=54
8D\L	.	.	8a/L	.	4ff#\	.	2D\	ma-	ma-	.	.	2A\	ma-	ma-	.	.	2f#\	ma-	ma-	.	.	2dd\	ma-	ma-	.	.	2F#/	.	2d\	.
8D\	.	.	8a/	.	.	.	.	.	.	.	.	.	.	.	.	.	.	.	.	.	.	.	.	.	.	.	.	.	.	.
8D\	.	.	8a/	.	16ff#\LL	.	.	.	.	.	.	.	.	.	.	.	.	.	.	.	.	.	.	.	.	.	.	.	.	.
.	.	.	.	.	16ee\	.	.	.	.	.	.	.	.	.	.	.	.	.	.	.	.	.	.	.	.	.	.	.	.	.
8D\J	.	.	8a/J	.	16ff#\	.	.	.	.	.	.	.	.	.	.	.	.	.	.	.	.	.	.	.	.	.	.	.	.	.
.	.	.	.	.	16gg\JJ	.	.	.	.	.	.	.	.	.	.	.	.	.	.	.	.	.	.	.	.	.	.	.	.	.
*tremolo	*	*	*tremolo	*	*	*	*	*	*	*	*	*	*	*	*	*	*	*	*	*	*	*	*	*	*	*	*	*	*	*
!	!	!	!LO:LB:g=original	!	!	!	!	!	!	!	!	!	!	!	!	!	!	!	!	!	!	!	!	!	!	!	!	!	!	!
8F#\L	6	.	8a/L	.	4aa\	.	4F#\	-gna	-gna	.	.	4A\	-gna	-gna	.	.	4f#\	-gna	-gna	.	.	4dd\	-gna	-gna	.	.	2d\	.	2f#\	.
8F#\	.	.	8a/	.	.	.	.	.	.	.	.	.	.	.	.	.	.	.	.	.	.	.	.	.	.	.	.	.	.	.
8F#\	.	.	8a/	.	4dd\	.	4F#\	qui	qui	.	.	4A\	qui	qui	.	.	4f#\	qui	qui	.	.	4dd\	qui	qui	.	.	.	.	.	.
8F#\J	.	.	8a/J	.	.	.	.	.	.	.	.	.	.	.	.	.	.	.	.	.	.	.	.	.	.	.	.	.	.	.
=55	=55	=55	=55	=55	=55	=55	=55	=55	=55	=55	=55	=55	=55	=55	=55	=55	=55	=55	=55	=55	=55	=55	=55	=55	=55	=55	=55	=55	=55	=55
8G\L	6	.	8b\L	.	4.ee\	.	2G\	po-	po-	.	.	2B\	po-	po-	.	.	2g\	po-	po-	.	.	2ee\	po-	po-	.	.	2e\	.	2g\	.
8G\	.	.	8b\	.	.	.	.	.	.	.	.	.	.	.	.	.	.	.	.	.	.	.	.	.	.	.	.	.	.	.
8G\	.	.	8b\	.	.	.	.	.	.	.	.	.	.	.	.	.	.	.	.	.	.	.	.	.	.	.	.	.	.	.
8G\J	.	.	8b\J	.	16gg\LL	.	.	.	.	.	.	.	.	.	.	.	.	.	.	.	.	.	.	.	.	.	.	.	.	.
.	.	.	.	.	16ff#\JJ	.	.	.	.	.	.	.	.	.	.	.	.	.	.	.	.	.	.	.	.	.	.	.	.	.
8A\L	3	.	8cc#\L	.	4ee\	.	2A\	-tens	-tens	.	.	2A\	-tens	-tens	.	.	2e\	-tens	-tens	.	.	2cc#\	-tens	-tens	.	.	2A/	.	2e\	.
8A\	.	.	8cc#\	.	.	.	.	.	.	.	.	.	.	.	.	.	.	.	.	.	.	.	.	.	.	.	.	.	.	.
8A\	.	.	8cc#\	.	4ee\	.	.	.	.	.	.	.	.	.	.	.	.	.	.	.	.	.	.	.	.	.	.	.	.	.
8A\J	.	.	8cc#\J	.	.	.	.	.	.	.	.	.	.	.	.	.	.	.	.	.	.	.	.	.	.	.	.	.	.	.
*Xtremolo	*	*	*Xtremolo	*	*	*	*	*	*	*	*	*	*	*	*	*	*	*	*	*	*	*	*	*	*	*	*	*	*	*
=56	=56	=56	=56	=56	=56	=56	=56	=56	=56	=56	=56	=56	=56	=56	=56	=56	=56	=56	=56	=56	=56	=56	=56	=56	=56	=56	=56	=56	=56	=56
4D\	.	.	4dd\	.	4ff#\	.	2D\	est	est:	.	.	2A\	est	est:	.	.	2f#\	est	est:	.	.	2dd\	est	est:	.	.	4F#/	.	2d\	.
4D\	.	.	8r	.	8r	.	.	.	.	.	.	.	.	.	.	.	.	.	.	.	.	.	.	.	.	.	4F#/	.	.	.
*	*	*	*tuplet	*	*	*	*	*	*	*	*	*	*	*	*	*	*	*	*	*	*	*	*	*	*	*	*	*	*	*
!	!	!	!LO:TUP:a:problem=klamra łukowa	!	!LO:TUP:a:problem=klamra łukowa	!	!	!	!	!	!	!	!	!	!	!	!	!	!	!	!	!	!	!	!	!	!	!	!	!
.	.	.	24a\LL	.	24aa\LL	.	.	.	.	.	.	.	.	.	.	.	.	.	.	.	.	.	.	.	.	.	.	.	.	.
.	.	.	24b\	.	24bb\	.	.	.	.	.	.	.	.	.	.	.	.	.	.	.	.	.	.	.	.	.	.	.	.	.
.	.	.	24cc#\JJ	.	24ccc#\JJ	.	.	.	.	.	.	.	.	.	.	.	.	.	.	.	.	.	.	.	.	.	.	.	.	.
!	!	!	!LO:SIC:s=8dd|\L	!	!	!	!	!	!	!	!	!	!	!	!	!	!	!	!	!	!	!	!	!	!	!	!	!	!	!
4r	.	.	8dd\L	.	8ddd|\L	.	4r	.	.	.	.	4r	.	.	.	.	4r	.	.	.	.	4r	.	.	.	.	4r	.	4r	.
!	!	!	!LO:SIC:s=8dd|\	!	!	!	!	!	!	!	!	!	!	!	!	!	!	!	!	!	!	!	!	!	!	!	!	!	!	!
.	.	.	8dd\	.	8ddd|\	.	.	.	.	.	.	.	.	.	.	.	.	.	.	.	.	.	.	.	.	.	.	.	.	.
!	!	!	!LO:SIC:s=8ccn|\	!	!	!	!	!	!	!	!	!	!	!	!	!	!	!	!	!	!	!	!	!	!	!	!	!	!	!
4F#\	6 n5r	.	8ccn\	.	8cccn|\	.	4F#\	et	et	.	.	4d\	et	et	.	.	4a\	et	et	.	.	4ccn\	et	et	.	.	4D/	.	4d\	.
!	!	!	!LO:SIC:s=8cc|\J	!	!	!	!	!	!	!	!	!	!	!	!	!	!	!	!	!	!	!	!	!	!	!	!	!	!	!
.	.	.	8cc\J	.	8ccc|\J	.	.	.	.	.	.	.	.	.	.	.	.	.	.	.	.	.	.	.	.	.	.	.	.	.
!LO:LB:g=original	!	!	!	!	!LO:LB:g=original	!	!	!	!	!	!	!LO:LB:g=original	!	!	!	!	!LO:LB:g=original	!	!	!	!	!	!	!	!	!	!	!	!	!
=57	=57	=57	=57	=57	=57	=57	=57	=57	=57	=57	=57	=57	=57	=57	=57	=57	=57	=57	=57	=57	=57	=57	=57	=57	=57	=57	=57	=57	=57	=57
4G\	.	.	4b|\	.	4bb|\	.	4G\	San-	san-	.	.	4d\	San-	san-	.	.	4g\	San-	san-	.	.	4b\	San-	san-	.	.	4D/	.	4d\	.
4G\	.	.	8r	.	8r	.	4G\	-ctu(m)	-ctu(m)	.	.	4d\	-ctu(m)	-ctu(m)	.	.	4g\	-ctum	-ctum	.	.	4b\	-ctu(m)	-ctu(m)	.	.	4D/	.	4d\	.
.	.	.	(16g/LL	.	(16gg\LL	.	.	.	.	.	.	.	.	.	.	.	.	.	.	.	.	.	.	.	.	.	.	.	.	.
.	.	.	16a/JJ)	.	16aa\JJ)	.	.	.	.	.	.	.	.	.	.	.	.	.	.	.	.	.	.	.	.	.	.	.	.	.
4r	.	.	8b|\L	.	8bb|\L	.	4r	.	.	.	.	4r	.	.	.	.	4r	.	.	.	.	4r	.	.	.	.	4r	.	4r	.
.	.	.	8cc#X|\J	.	8ccc#X|\J	.	.	.	.	.	.	.	.	.	.	.	.	.	.	.	.	.	.	.	.	.	.	.	.	.
*	*	*	*	*	*	*	*	*ij	*ij	*	*	*	*ij	*ij	*	*	*	*ij	*ij	*	*	*	*ij	*ij	*	*	*	*	*	*
!	!	!	!LO:SIC:s=(8.cc#\L	!	!	!	!	!	!	!	!	!	!	!	!	!	!	!	!	!	!	!	!	!	!	!	!	!	!	!
4E\	#6\ 3	.	8.cc#\L	.	8.ccc#t\L	.	4E\	et	et	.	.	4A\	et	et	.	.	4g\	et	et	.	.	4cc#X\	et	et	.	.	4A/	.	4e\	.
.	.	.	32b\LL	.	(32bb\LL	.	.	.	.	.	.	.	.	.	.	.	.	.	.	.	.	.	.	.	.	.	.	.	.	.
!	!	!	!LO:SIC:s=32cc#\JJJ)	!	!	!	!	!	!	!	!	!	!	!	!	!	!	!	!	!	!	!	!	!	!	!	!	!	!	!
.	.	.	32cc#\JJJ	.	32ccc#\JJJ)	.	.	.	.	.	.	.	.	.	.	.	.	.	.	.	.	.	.	.	.	.	.	.	.	.
=58	=58	=58	=58	=58	=58	=58	=58	=58	=58	=58	=58	=58	=58	=58	=58	=58	=58	=58	=58	=58	=58	=58	=58	=58	=58	=58	=58	=58	=58	=58
4D\	.	.	4dd\	.	4ddd\	.	4D\	San-	san-	.	.	4A\	San-	san-	.	.	4f#\	San-	san-	.	.	4dd\	San-	san-	.	.	4F#/	.	4d\	.
4D\	.	.	8r	.	8r	.	4D\	-ctu(m)	-ctu(m)	.	.	4A\	-ctu(m)	-ctu(m)	.	.	4f#\	-ctum	-ctum	.	.	4dd\	-ctu(m)	-ctu(m)	.	.	4F#/	.	4d\	.
!	!	!	!LO:TUP:a:problem=klamra łukowa	!	!LO:TUP:a:problem=klamra łukowa	!	!	!	!	!	!	!	!	!	!	!	!	!	!	!	!	!	!	!	!	!	!	!	!	!
.	.	.	24a\LL	.	24aa\LL	.	.	.	.	.	.	.	.	.	.	.	.	.	.	.	.	.	.	.	.	.	.	.	.	.
.	.	.	24b\	.	24bb\	.	.	.	.	.	.	.	.	.	.	.	.	.	.	.	.	.	.	.	.	.	.	.	.	.
.	.	.	24cc#\JJ	.	24ccc#\JJ	.	.	.	.	.	.	.	.	.	.	.	.	.	.	.	.	.	.	.	.	.	.	.	.	.
4r	.	.	8dd|\L	.	8ddd|\L	.	4r	.	.	.	.	4r	.	.	.	.	4r	.	.	.	.	4r	.	.	.	.	4r	.	4r	.
.	.	.	8dd|\	.	8ddd|\	.	.	.	.	.	.	.	.	.	.	.	.	.	.	.	.	.	.	.	.	.	.	.	.	.
4F#\	6 n5r	.	8ccn|\	.	8cccn|\	.	4F#\	et	et	.	.	4d\	et	et	.	.	4a\	et	et	.	.	4ccn\	et	et	.	.	4D/	.	4d\	.
.	.	.	8cc|\J	.	8ccc|\J	.	.	.	.	.	.	.	.	.	.	.	.	.	.	.	.	.	.	.	.	.	.	.	.	.
=59	=59	=59	=59	=59	=59	=59	=59	=59	=59	=59	=59	=59	=59	=59	=59	=59	=59	=59	=59	=59	=59	=59	=59	=59	=59	=59	=59	=59	=59	=59
4G\	.	.	4b|\	.	4bb|\	.	4G\	San-	san-	.	.	4d\	San-	san-	.	.	4g\	San-	san-	.	.	4b\	San-	san-	.	.	4D/	.	4d\	.
4G\	.	.	8r	.	8r	.	4G\	-ctu(m)	-ctu(m)	.	.	4d\	-ctu(m)	-ctu(m)	.	.	4g\	-ctum	-ctum	.	.	4b\	-ctu(m)	-ctu(m)	.	.	4D/	.	4d\	.
.	.	.	(16g/LL	.	(16gg\LL	.	.	.	.	.	.	.	.	.	.	.	.	.	.	.	.	.	.	.	.	.	.	.	.	.
.	.	.	16a/JJ)	.	16aa\JJ)	.	.	.	.	.	.	.	.	.	.	.	.	.	.	.	.	.	.	.	.	.	.	.	.	.
4r	.	.	8b|\L	.	8bb|\L	.	4r	.	.	.	.	4r	.	.	.	.	4r	.	.	.	.	4r	.	.	.	.	4r	.	4r	.
.	.	.	8cc#X|\J	.	8ccc#X|\J	.	.	.	.	.	.	.	.	.	.	.	.	.	.	.	.	.	.	.	.	.	.	.	.	.
!	!	!	!LO:LB:g=original	!	!	!	!	!	!	!	!	!	!	!	!	!	!	!	!	!	!	!	!	!	!	!	!	!	!	!
4E\	#6\ 3	.	(8.cc#\L	.	8.ccc#t\L	.	4E\	et	et	.	.	4A\	et	et	.	.	4g\	et	et	.	.	4cc#X\	et	et	.	.	4A/	.	4e\	.
.	.	.	32b\LL	.	(32bb\LL	.	.	.	.	.	.	.	.	.	.	.	.	.	.	.	.	.	.	.	.	.	.	.	.	.
.	.	.	32cc#\JJJ)	.	32ccc#\JJJ)	.	.	.	.	.	.	.	.	.	.	.	.	.	.	.	.	.	.	.	.	.	.	.	.	.
=60	=60	=60	=60	=60	=60	=60	=60	=60	=60	=60	=60	=60	=60	=60	=60	=60	=60	=60	=60	=60	=60	=60	=60	=60	=60	=60	=60	=60	=60	=60
!	!	!	!	!	!LO:SIC:s=4ddd|\	!	!	!	!	!	!	!	!	!	!	!	!	!	!	!	!	!	!	!	!	!	!	!	!	!
4D\	.	.	4dd|\	.	4ddd\	.	4D\	San-	san-	.	.	4A\	San-	san-	.	.	4f#\	San-	san-	.	.	4dd\	San-	san-	.	.	4F#/	.	4d\	.
4D\	.	.	8r	.	8r	.	4D\	-ctu(m)	-ctu(m)	.	.	4A\	-ctu(m)	-ctu(m)	.	.	4f#\	-ctum	-ctum	.	.	4dd\	-ctu(m)	-ctu(m)	.	.	4F#/	.	4d\	.
*	*	*	*	*	*	*	*	*Xij	*Xij	*	*	*	*	*	*	*	*	*	*	*	*	*	*	*	*	*	*	*	*	*
!	!	!	!LO:TUP:a:problem=klamra łukowa	!	!LO:TUP:a:problem=klamra łukowa	!	!	!	!	!	!	!	!	!	!	!	!	!	!	!	!	!	!	!	!	!	!	!	!	!
.	.	.	24a\LL	.	24aa\LL	.	.	.	.	.	.	.	.	.	.	.	.	.	.	.	.	.	.	.	.	.	.	.	.	.
.	.	.	24b\	.	24bb\	.	.	.	.	.	.	.	.	.	.	.	.	.	.	.	.	.	.	.	.	.	.	.	.	.
.	.	.	24cc#\JJ	.	24ccc#\JJ	.	.	.	.	.	.	.	.	.	.	.	.	.	.	.	.	.	.	.	.	.	.	.	.	.
!	!	!	!	!	!	!	!	!	!	!	!	!	!	!	!	!	!	!	!	!	!	!LO:LB:g=original	!	!	!	!	!	!	!	!
4r	.	.	8dd|\L	.	8ddd|\L	.	4r	.	.	.	.	4r	.	.	.	.	4r	.	.	.	.	4r	.	.	.	.	4r	.	4r	.
.	.	.	8dd|\	.	8ddd|\	.	.	.	.	.	.	.	.	.	.	.	.	.	.	.	.	.	.	.	.	.	.	.	.	.
4F#\	6 n5r	.	8ccn|\	.	8cccn|\	.	4F#\	et	et	.	.	4A\	et	et	.	.	4a\	et	et	.	.	4dd\	et	et	.	.	4D/	.	4d\	.
.	.	.	8cc|\J	.	8ccc|\J	.	.	.	.	.	.	.	.	.	.	.	.	.	.	.	.	.	.	.	.	.	.	.	.	.
!	!	!	!	!	!	!	!LO:LB:g=original	!	!	!	!	!	!	!	!	!	!	!	!	!	!	!	!	!	!	!	!	!	!	!
=61	=61	=61	=61	=61	=61	=61	=61	=61	=61	=61	=61	=61	=61	=61	=61	=61	=61	=61	=61	=61	=61	=61	=61	=61	=61	=61	=61	=61	=61	=61
!	!	!	!	!	!LO:SIC:v:s=8ccc\L	!	!	!	!	!	!	!	!	!	!	!	!	!	!	!	!	!	!	!	!	!	!	!	!	!
8G\L	.	.	8b\L	.	8ccc#\L	.	2G\	San-	san-	.	.	2G/	San-	san-	.	.	2b\	San-	san-	.	.	2dd\	San-	san-	.	.	2D/	.	1d	.
8G\	.	.	8b\	.	8bb\J	.	.	.	.	.	.	.	.	.	.	.	.	.	.	.	.	.	.	.	.	.	.	.	.	.
8G\	.	.	8b\	.	2ddd\	.	.	.	.	.	.	.	.	.	.	.	.	.	.	.	.	.	.	.	.	.	.	.	.	.
8G\J	.	.	8b\J	.	.	.	.	.	.	.	.	.	.	.	.	.	.	.	.	.	.	.	.	.	.	.	.	.	.	.
*tremolo	*	*	*	*	*	*	*	*	*	*	*	*	*	*	*	*	*	*	*	*	*	*	*	*	*	*	*	*	*	*
8F#\L	6	.	8a\L	.	.	.	2F#\	-ctum	-ctum	.	.	2A\	-ctu(m)	-ctu(m)	.	.	2a\	-ctum	-ctum	.	.	2dd\	-ctu(m)	-ctu(m)	.	.	2D/	.	.	.
*	*	*	*	*	*	*	*	*	*	*	*	*	*Xij	*Xij	*	*	*	*Xij	*Xij	*	*	*	*Xij	*Xij	*	*	*	*	*	*
8F#\	.	.	8a\	.	.	.	.	.	.	.	.	.	.	.	.	.	.	.	.	.	.	.	.	.	.	.	.	.	.	.
!	!	!	!	!	!LO:LB:g=original	!	!	!	!	!	!	!	!	!	!	!	!	!	!	!	!	!	!	!	!	!	!	!	!	!
8F#\	.	.	8dd\	.	16ddd\LL	.	.	.	.	.	.	.	.	.	.	.	.	.	.	.	.	.	.	.	.	.	.	.	.	.
.	.	.	.	.	16ccc#\	.	.	.	.	.	.	.	.	.	.	.	.	.	.	.	.	.	.	.	.	.	.	.	.	.
8F#\J	.	.	8dd\J	.	16bb\	.	.	.	.	.	.	.	.	.	.	.	.	.	.	.	.	.	.	.	.	.	.	.	.	.
.	.	.	.	.	16aa\JJ	.	.	.	.	.	.	.	.	.	.	.	.	.	.	.	.	.	.	.	.	.	.	.	.	.
=62	=62	=62	=62	=62	=62	=62	=62	=62	=62	=62	=62	=62	=62	=62	=62	=62	=62	=62	=62	=62	=62	=62	=62	=62	=62	=62	=62	=62	=62	=62
8E\L	#6\ 3	.	8gg\L	.	8bb\L	.	2E\	no-	no-	.	.	2A\	no-	no-	.	.	2g\	no-	no-	.	.	2cc#\	no-	no-	.	.	2A/	.	2e\	.
!	!	!	!	!	!LO:SIC:s=8ccc#\J	!	!	!	!	!	!	!	!	!	!	!	!	!	!	!	!	!	!	!	!	!	!	!	!	!
8E\	.	.	8gg\	.	8ccc#X\J	.	.	.	.	.	.	.	.	.	.	.	.	.	.	.	.	.	.	.	.	.	.	.	.	.
8E\	.	.	8gg\	.	(4.ccc#\	.	.	.	.	.	.	.	.	.	.	.	.	.	.	.	.	.	.	.	.	.	.	.	.	.
8E\J	.	.	8gg\J	.	.	.	.	.	.	.	.	.	.	.	.	.	.	.	.	.	.	.	.	.	.	.	.	.	.	.
*	*	*	*tremolo	*	*	*	*	*	*	*	*	*	*	*	*	*	*	*	*	*	*	*	*	*	*	*	*	*	*	*
8D\L	.	.	8ff#\L	.	.	.	2D\	-men	-men	.	.	2A\	-me(n)	-me(n)	.	.	2f#\	-men	-men	.	.	2dd\	-men	-men	.	.	2d\	.	2f#\	.
8D\	.	.	8ff#\	.	8ddd\)	.	.	.	.	.	.	.	.	.	.	.	.	.	.	.	.	.	.	.	.	.	.	.	.	.
8D\	.	.	8ff#\	.	8.ddd\L	.	.	.	.	.	.	.	.	.	.	.	.	.	.	.	.	.	.	.	.	.	.	.	.	.
8D\J	.	.	8ff#\J	.	.	.	.	.	.	.	.	.	.	.	.	.	.	.	.	.	.	.	.	.	.	.	.	.	.	.
.	.	.	.	.	32ccc#\LL	.	.	.	.	.	.	.	.	.	.	.	.	.	.	.	.	.	.	.	.	.	.	.	.	.
.	.	.	.	.	32ddd\JJJ	.	.	.	.	.	.	.	.	.	.	.	.	.	.	.	.	.	.	.	.	.	.	.	.	.
*	*	*	*Xtremolo	*	*	*	*	*	*	*	*	*	*	*	*	*	*	*	*	*	*	*	*	*	*	*	*	*	*	*
!	!	!	!	!	!	!	!	!	!	!	!	!	!	!	!	!	!	!	!	!	!	!	!	!	!	!	!LO:LB:g=original	!	!LO:LB:g=original	!
=63	=63	=63	=63	=63	=63	=63	=63	=63	=63	=63	=63	=63	=63	=63	=63	=63	=63	=63	=63	=63	=63	=63	=63	=63	=63	=63	=63	=63	=63	=63
!	!	!	!	!	!	!	!LO:SIC:s=(2G\	!	!	!	!	!	!	!	!	!	!LO:SIC:s=(2g\	!	!	!	!	!LO:SIC:s=(2ee\	!	!	!	!	!	!	!	!
8G\L	6	.	4ee\	.	4bb\	.	2G\	e-	e-	.	.	(2B\	e-	e-	.	.	2g\	e-	e-	.	.	2ee\	e-	e-	.	.	2e\	.	2g\	.
8G\	.	.	.	.	.	.	.	.	.	.	.	.	.	.	.	.	.	.	.	.	.	.	.	.	.	.	.	.	.	.
8G\	.	.	8gg\L	.	8bb\L	.	.	.	.	.	.	.	.	.	.	.	.	.	.	.	.	.	.	.	.	.	.	.	.	.
8G\J	.	.	16ff#\L	.	16aa\L	.	.	.	.	.	.	.	.	.	.	.	.	.	.	.	.	.	.	.	.	.	.	.	.	.
.	.	.	16ee\JJ	.	16gg\JJ	.	.	.	.	.	.	.	.	.	.	.	.	.	.	.	.	.	.	.	.	.	.	.	.	.
*Xtremolo	*	*	*	*	*	*	*	*	*	*	*	*	*	*	*	*	*	*	*	*	*	*	*	*	*	*	*	*	*	*
!LO:TX:t=P:problem=mixed beam	!	!	!	!	!	!	!	!	!	!	!	!	!	!	!	!	!	!	!	!	!	!	!	!	!	!	!	!	!	!
8A\L	4	.	4dd\	.	4ff#\	.	4A\	.	.	.	.	2A\)	.	.	.	.	4f#\	.	.	.	.	4dd\	.	.	.	.	4d\	.	4f#\	.
8A\	.	.	.	.	.	.	.	.	.	.	.	.	.	.	.	.	.	.	.	.	.	.	.	.	.	.	.	.	.	.
!	!	!	!	!	!	!	!LO:SIC:s=4AA/)	!	!	!	!	!	!	!	!	!	!LO:SIC:s=4e\)	!	!	!	!	!LO:SIC:s=4cc#\)	!	!	!	!	!	!	!	!
8AA/	3	.	4cc#\	.	4ee\	.	4AA/	.	.	.	.	.	.	.	.	.	4e\	.	.	.	.	4cc#\	.	.	.	.	4A/	.	4e\	.
8AA/J	.	.	.	.	.	.	.	.	.	.	.	.	.	.	.	.	.	.	.	.	.	.	.	.	.	.	.	.	.	.
=64	=64	=64	=64	=64	=64	=64	=64	=64	=64	=64	=64	=64	=64	=64	=64	=64	=64	=64	=64	=64	=64	=64	=64	=64	=64	=64	=64	=64	=64	=64
4D\	.	.	4dd\	.	4ff#\	.	4D\	ius	ius	.	.	4A\	ius	ius	.	.	2f#\	ius	ius	.	.	4dd\	ius	ius	.	.	4F#/	.	4d\	.
!	!	!	!	!	!	!	!LO:SIC:s=(4B\	!	!	!	!	!LO:SIC:s=(2B\	!	!	!	!	!	!	!	!	!	!	!	!	!	!	!	!	!	!
4B\	.	.	4ff#\	.	2ddd\	.	4B\	e-	e-	.	.	2B\	e-	e-	.	.	.	.	.	.	.	(2dd\	e-	e-	.	.	2d\	.	4f#\	.
4G\	6 5	.	4.ee\	.	.	.	4G\	.	.	.	.	.	.	.	.	.	2e\	e-	e-	.	.	.	.	.	.	.	.	.	2e\	.
!	!	!	!	!	!	!	!LO:SIC:s=4A\)	!	!	!	!	!LO:SIC:s=4A\)	!	!	!	!	!	!	!	!	!	!	!	!	!	!	!	!	!	!
4A\	.	.	.	.	4ccc#\	.	4A\	.	.	.	.	4A\	.	.	.	.	.	.	.	.	.	4cc#\)	.	.	.	.	4A/	.	.	.
.	.	.	16dd\LL	.	.	.	.	.	.	.	.	.	.	.	.	.	.	.	.	.	.	.	.	.	.	.	.	.	.	.
.	.	.	16ee\JJ	.	.	.	.	.	.	.	.	.	.	.	.	.	.	.	.	.	.	.	.	.	.	.	.	.	.	.
=65	=65	=65	=65	=65	=65	=65	=65	=65	=65	=65	=65	=65	=65	=65	=65	=65	=65	=65	=65	=65	=65	=65	=65	=65	=65	=65	=65	=65	=65	=65
2D\	.	.	2ff# 2a 2d\	.	2ddd\	.	2D\	-ius	-ius.	.	.	2A\	-ius	-ius.	.	.	2f#\	-ius	-ius.	.	.	2dd\	-ius	-ius.	.	.	2F#/	.	2d\	.
2r	.	.	2r	.	2r	.	2r	.	.	.	.	2r	.	.	.	.	2r	.	.	.	.	2r	.	.	.	.	2r	.	2r	.
==	==	==	==	==	==	==	==	==	==	==	==	==	==	==	==	==	==	==	==	==	==	==	==	==	==	==	==	==	==	==
*-	*-	*-	*-	*-	*-	*-	*-	*-	*-	*-	*-	*-	*-	*-	*-	*-	*-	*-	*-	*-	*-	*-	*-	*-	*-	*-	*-	*-	*-	*-
!!!system-decoration: [(g1)][(g2)][(g3)]g4
!!!RDF**kern: > = above
!!!RDF**kern: < = below
!!!RDF**kern: | = vertical stroke
!!!filter-modern: sic -sq | shed -e "s/LO:DY:(a|b|rj)/LO:dy:$1/L" | autostem -r | tie -s | shed -k -e "s/[<>]//g" | shed -k -e "s/:TUP:/:tup:/L" | shed -e "s/t=P:/T=P:/L" | shed -e "s/^(\d+[\/\\]right)/$1yy/I; s/^(\d+[\/\\]left)/$1yy/I" | modori -m
!!!ENC: Filip Voros
!!!END: 2021-11-26
!!!ENC: Kamil Watkowski
!!!END: 2021-12-07
!!!ENC-modern: Katarzyna Serwa
!!!END-modern: 2022-07-27
!!!YEC: Copyright 2022 Narodowy Instytut Fryderyka Chopina (https://polishscores.org)
!!!YEM: License CC-BY-4.0 (https://creativecommons.org/licenses/by/4.0)
